(Gear_Stage_2)
(T1  D=6 CR=0 - ZMIN=-3 - flat end mill)
(Face1)
T1
S12000 M3
G54
M8
G0 X24.891 Y-21.164
Z15
Z5
G1 Z0.429 F800
G18 G3 X24.291 Z-0.171 I-0.6 K0
G1 X21
X-21
G17 G2 X-21 Y-18.358 I0 J1.403
G1 X21
G3 X21 Y-15.552 I0 J1.403
G1 X-21
G2 X-21 Y-12.746 I0 J1.403
G1 X21
G3 X21 Y-9.94 I0 J1.403
G1 X-21
G2 X-21 Y-7.134 I0 J1.403
G1 X21
G3 X21 Y-4.328 I0 J1.403
G1 X-21
G2 X-21 Y-1.522 I0 J1.403
G1 X21
G3 X21 Y1.284 I0 J1.403
G1 X-21
G2 X-21 Y4.09 I0 J1.403
G1 X21
G3 X21 Y6.896 I0 J1.403
G1 X-21
G2 X-21 Y9.702 I0 J1.403
G1 X21
G3 X21 Y12.508 I0 J1.403
G1 X-21
G2 X-21 Y15.314 I0 J1.403
G1 X21
G3 X21 Y18.12 I0 J1.403
G1 X-21
G18 G3 X-21.6 Z0.429 I0 K0.6
G0 Z5
X-24.891 Y-21.164
G1 Z-0.985 F800
G2 X-24.291 Z-1.585 I0.6 K0
G1 X-21
X21
G17 G3 X21 Y-18.358 I0 J1.403
G1 X-21
G2 X-21 Y-15.552 I0 J1.403
G1 X21
G3 X21 Y-12.746 I0 J1.403
G1 X-21
G2 X-21 Y-9.94 I0 J1.403
G1 X21
G3 X21 Y-7.134 I0 J1.403
G1 X-21
G2 X-21 Y-4.328 I0 J1.403
G1 X21
G3 X21 Y-1.522 I0 J1.403
G1 X-21
G2 X-21 Y1.284 I0 J1.403
G1 X21
G3 X21 Y4.09 I0 J1.403
G1 X-21
G2 X-21 Y6.896 I0 J1.403
G1 X21
G3 X21 Y9.702 I0 J1.403
G1 X-21
G2 X-21 Y12.508 I0 J1.403
G1 X21
G3 X21 Y15.314 I0 J1.403
G1 X-21
G2 X-21 Y18.12 I0 J1.403
G1 X21
G18 G2 X21.6 Z-0.985 I0 K0.6
G0 Z5
X24.891 Y-21.164
G1 Z-2.4 F800
G3 X24.291 Z-3 I-0.6 K0
G1 X21
X-21
G17 G2 X-21 Y-18.358 I0 J1.403
G1 X21
G3 X21 Y-15.552 I0 J1.403
G1 X-21
G2 X-21 Y-12.746 I0 J1.403
G1 X21
G3 X21 Y-9.94 I0 J1.403
G1 X-21
G2 X-21 Y-7.134 I0 J1.403
G1 X21
G3 X21 Y-4.328 I0 J1.403
G1 X-21
G2 X-21 Y-1.522 I0 J1.403
G1 X21
G3 X21 Y1.284 I0 J1.403
G1 X-21
G2 X-21 Y4.09 I0 J1.403
G1 X21
G3 X21 Y6.896 I0 J1.403
G1 X-21
G2 X-21 Y9.702 I0 J1.403
G1 X21
G3 X21 Y12.508 I0 J1.403
G1 X-21
G2 X-21 Y15.314 I0 J1.403
G1 X21
G3 X21 Y18.12 I0 J1.403
G1 X-21
G18 G3 X-21.6 Z-2.4 I0 K0.6
G0 Z15