(ROV-300-43)
(T1  D=3.175 CR=0 - ZMIN=-3.175 - flat end mill)
(2D Contour1)
T1
S11999 M3
G54
M8
G0 X33.318 Y-19.04
Z15
Z5
G1 Z3 F425
Z-1.683
G19 G3 Y-18.722 Z-2 J0.318 K0 F1275
G1 Y-18.405
G17 G3 X33 Y-18.087 I-0.318 J0
G1 X-33 F1274.9
G2 X-35.588 Y-15.5 I0 J2.587
G1 Y15.5
G2 X-33 Y18.087 I2.588 J0
G1 X33
G2 X35.588 Y15.5 I0 J-2.587
G1 Y-15.5
G2 X33 Y-18.087 I-2.588 J0
G3 X32.682 Y-18.405 I0 J-0.318 F1275
G1 Y-18.722
G19 G2 Y-19.04 Z-1.683 J0 K0.317
G0 Z5
X33.318
G1 Z1 F425
Z-2.858
G3 Y-18.722 Z-3.175 J0.318 K0 F1275
G1 Y-18.405
G17 G3 X33 Y-18.087 I-0.318 J0
G1 X-33 F1274.9
G2 X-35.588 Y-15.5 I0 J2.587
G1 Y15.5
G2 X-33 Y18.087 I2.588 J0
G1 X33
G2 X35.588 Y15.5 I0 J-2.587
G1 Y-15.5
G2 X33 Y-18.087 I-2.588 J0
G3 X32.682 Y-18.405 I0 J-0.318 F1275
G1 Y-18.722
G19 G2 Y-19.04 Z-2.858 J0 K0.317
G0 Z15
G17

(Bore1)
G0 X-31.75 Y14.25
Z15
Z1.683
G1 Z0 F1275
X-31.781 Y14.281
X-31.797 Y14.277
X-31.808 Y14.266
X-31.813 Y14.25
X-31.805 Y14.22 Z-0.009 F1274.9
X-31.783 Y14.197 Z-0.019
X-31.754 Y14.188 Z-0.028
X-31.723 Y14.194 Z-0.037
X-31.699 Y14.214 Z-0.046
X-31.688 Y14.243 Z-0.056
X-31.692 Y14.274 Z-0.065
X-31.711 Y14.299 Z-0.074
X-31.74 Y14.312 Z-0.083
X-31.771 Y14.309 Z-0.093
X-31.797 Y14.292 Z-0.102
X-31.811 Y14.264 Z-0.111
X-31.81 Y14.233 Z-0.12
X-31.794 Y14.206 Z-0.13
X-31.767 Y14.19 Z-0.139
X-31.736 Y14.189 Z-0.148
X-31.708 Y14.203 Z-0.157
X-31.691 Y14.229 Z-0.167
X-31.688 Y14.26 Z-0.176
X-31.701 Y14.289 Z-0.185
X-31.726 Y14.308 Z-0.194
X-31.757 Y14.312 Z-0.204
X-31.786 Y14.301 Z-0.213
X-31.806 Y14.277 Z-0.222
X-31.812 Y14.247 Z-0.231
X-31.803 Y14.217 Z-0.241
X-31.78 Y14.195 Z-0.25
X-31.75 Y14.187 Z-0.259
X-31.72 Y14.195 Z-0.269
X-31.697 Y14.217 Z-0.278
X-31.688 Y14.246 Z-0.287
X-31.694 Y14.277 Z-0.296
X-31.714 Y14.301 Z-0.306
X-31.743 Y14.312 Z-0.315
X-31.774 Y14.308 Z-0.324
X-31.799 Y14.289 Z-0.333
X-31.812 Y14.261 Z-0.343
X-31.809 Y14.229 Z-0.352
X-31.792 Y14.203 Z-0.361
X-31.764 Y14.189 Z-0.37
X-31.733 Y14.19 Z-0.38
X-31.706 Y14.206 Z-0.389
X-31.69 Y14.233 Z-0.398
X-31.689 Y14.264 Z-0.407
X-31.703 Y14.292 Z-0.417
X-31.729 Y14.309 Z-0.426
X-31.76 Y14.312 Z-0.435
X-31.789 Y14.299 Z-0.444
X-31.808 Y14.274 Z-0.454
X-31.812 Y14.243 Z-0.463
X-31.801 Y14.214 Z-0.472
X-31.777 Y14.194 Z-0.481
X-31.747 Y14.188 Z-0.491
X-31.717 Y14.197 Z-0.5
X-31.695 Y14.22 Z-0.509
X-31.688 Y14.25 Z-0.519
X-31.695 Y14.28 Z-0.528
X-31.717 Y14.303 Z-0.537
X-31.746 Y14.312 Z-0.546
X-31.777 Y14.306 Z-0.556
X-31.801 Y14.286 Z-0.565
X-31.812 Y14.257 Z-0.574
X-31.808 Y14.226 Z-0.583
X-31.789 Y14.201 Z-0.593
X-31.761 Y14.188 Z-0.602
X-31.73 Y14.191 Z-0.611
X-31.704 Y14.208 Z-0.62
X-31.689 Y14.236 Z-0.63
X-31.69 Y14.267 Z-0.639
X-31.706 Y14.294 Z-0.648
X-31.732 Y14.31 Z-0.657
X-31.764 Y14.311 Z-0.667
X-31.791 Y14.297 Z-0.676
X-31.809 Y14.271 Z-0.685
X-31.812 Y14.24 Z-0.694
X-31.799 Y14.211 Z-0.704
X-31.774 Y14.192 Z-0.713
X-31.743 Y14.188 Z-0.722
X-31.714 Y14.199 Z-0.731
X-31.694 Y14.223 Z-0.741
X-31.688 Y14.253 Z-0.75
X-31.697 Y14.283 Z-0.759
X-31.72 Y14.305 Z-0.769
X-31.75 Y14.312 Z-0.778
X-31.78 Y14.305 Z-0.787
X-31.803 Y14.283 Z-0.796
X-31.812 Y14.254 Z-0.806
X-31.806 Y14.223 Z-0.815
X-31.786 Y14.199 Z-0.824
X-31.757 Y14.188 Z-0.833
X-31.726 Y14.192 Z-0.843
X-31.701 Y14.211 Z-0.852
X-31.688 Y14.239 Z-0.861
X-31.691 Y14.27 Z-0.87
X-31.708 Y14.296 Z-0.88
X-31.736 Y14.311 Z-0.889
X-31.767 Y14.31 Z-0.898
X-31.794 Y14.294 Z-0.907
X-31.81 Y14.268 Z-0.917
X-31.811 Y14.236 Z-0.926
X-31.797 Y14.209 Z-0.935
X-31.771 Y14.191 Z-0.944
X-31.74 Y14.188 Z-0.954
X-31.711 Y14.201 Z-0.963
X-31.692 Y14.226 Z-0.972
X-31.688 Y14.257 Z-0.981
X-31.699 Y14.286 Z-0.991
X-31.723 Y14.306 Z-1
X-31.753 Y14.312 Z-1.009
X-31.783 Y14.303 Z-1.019
X-31.805 Y14.281 Z-1.028
X-31.812 Y14.25 Z-1.037
X-31.805 Y14.22 Z-1.046
X-31.784 Y14.197 Z-1.056
X-31.754 Y14.188 Z-1.065
X-31.723 Y14.194 Z-1.074
X-31.699 Y14.214 Z-1.083
X-31.688 Y14.243 Z-1.093
X-31.692 Y14.274 Z-1.102
X-31.711 Y14.299 Z-1.111
X-31.739 Y14.312 Z-1.12
X-31.77 Y14.309 Z-1.13
X-31.796 Y14.292 Z-1.139
X-31.811 Y14.264 Z-1.148
X-31.81 Y14.233 Z-1.157
X-31.794 Y14.206 Z-1.167
X-31.768 Y14.19 Z-1.176
X-31.737 Y14.189 Z-1.185
X-31.709 Y14.203 Z-1.194
X-31.691 Y14.229 Z-1.204
X-31.688 Y14.26 Z-1.213
X-31.701 Y14.289 Z-1.222
X-31.726 Y14.308 Z-1.231
X-31.757 Y14.312 Z-1.241
X-31.786 Y14.301 Z-1.25
G3 X-31.714 Y14.199 I0.036 J-0.051
X-31.786 Y14.301 I-0.036 J0.051
G1 X-31.796 Y14.289 F1275
X-31.799 Y14.273
X-31.794 Y14.258
X-31.75 Y14.25
G0 Z5
X-20.243 Y0.219
Z2
G1 Z0.317 F1275
G18 G3 X-20.56 Z0 I-0.317 K0
G1 X-20.719
G17 G3 X-20.938 Y0 I0 J-0.219
X-20.063 Y0 Z-0.071 I0.438 J0 F1274.9
X-20.937 Y0 Z-0.141 I-0.437 J0
X-20.063 Y0 Z-0.212 I0.437 J0
X-20.937 Y0 Z-0.283 I-0.437 J0
X-20.063 Y0 Z-0.354 I0.437 J0
X-20.937 Y0 Z-0.424 I-0.437 J0
X-20.063 Y0 Z-0.495 I0.437 J0
X-20.937 Y0 Z-0.566 I-0.437 J0
X-20.063 Y0 Z-0.636 I0.437 J0
X-20.937 Y0 Z-0.707 I-0.437 J0
X-20.063 Y0 Z-0.778 I0.437 J0
X-20.937 Y0 Z-0.849 I-0.437 J0
X-20.063 Y0 Z-0.919 I0.437 J0
X-20.937 Y0 Z-0.99 I-0.437 J0
X-20.063 Y0 Z-1.061 I0.437 J0
X-20.937 Y0 Z-1.131 I-0.437 J0
X-20.063 Y0 Z-1.202 I0.437 J0
X-20.731 Y0.372 Z-1.25 I-0.437 J0
X-20.269 Y-0.372 I0.231 J-0.372
X-20.731 Y0.372 I-0.231 J0.372
X-20.801 Y0.071 I0.115 J-0.186 F1275
G1 X-20.718 Y-0.064
X-20.68 Y-0.124 Z-1.242
X-20.645 Y-0.181 Z-1.219
X-20.613 Y-0.233 Z-1.181
X-20.587 Y-0.275 Z-1.13
X-20.567 Y-0.307 Z-1.07
X-20.554 Y-0.327 Z-1.003
X-20.55 Y-0.334 Z-0.933
G0 Z5
X-31.75 Y-14.25
Z1.683
G1 Z0 F1275
X-31.719 Y-14.281
X-31.703 Y-14.277
X-31.692 Y-14.266
X-31.688 Y-14.25
X-31.695 Y-14.22 Z-0.009 F1274.9
X-31.717 Y-14.197 Z-0.019
X-31.746 Y-14.188 Z-0.028
X-31.777 Y-14.194 Z-0.037
X-31.801 Y-14.214 Z-0.046
X-31.812 Y-14.243 Z-0.056
X-31.808 Y-14.274 Z-0.065
X-31.789 Y-14.299 Z-0.074
X-31.76 Y-14.312 Z-0.083
X-31.729 Y-14.309 Z-0.093
X-31.703 Y-14.292 Z-0.102
X-31.689 Y-14.264 Z-0.111
X-31.69 Y-14.233 Z-0.12
X-31.706 Y-14.206 Z-0.13
X-31.733 Y-14.19 Z-0.139
X-31.764 Y-14.189 Z-0.148
X-31.792 Y-14.203 Z-0.157
X-31.809 Y-14.229 Z-0.167
X-31.812 Y-14.26 Z-0.176
X-31.799 Y-14.289 Z-0.185
X-31.774 Y-14.308 Z-0.194
X-31.743 Y-14.312 Z-0.204
X-31.714 Y-14.301 Z-0.213
X-31.694 Y-14.277 Z-0.222
X-31.688 Y-14.247 Z-0.231
X-31.697 Y-14.217 Z-0.241
X-31.72 Y-14.195 Z-0.25
X-31.75 Y-14.187 Z-0.259
X-31.78 Y-14.195 Z-0.269
X-31.803 Y-14.217 Z-0.278
X-31.812 Y-14.246 Z-0.287
X-31.806 Y-14.277 Z-0.296
X-31.786 Y-14.301 Z-0.306
X-31.757 Y-14.312 Z-0.315
X-31.726 Y-14.308 Z-0.324
X-31.701 Y-14.289 Z-0.333
X-31.688 Y-14.261 Z-0.343
X-31.691 Y-14.229 Z-0.352
X-31.708 Y-14.203 Z-0.361
X-31.736 Y-14.189 Z-0.37
X-31.767 Y-14.19 Z-0.38
X-31.794 Y-14.206 Z-0.389
X-31.81 Y-14.233 Z-0.398
X-31.811 Y-14.264 Z-0.407
X-31.797 Y-14.292 Z-0.417
X-31.771 Y-14.309 Z-0.426
X-31.74 Y-14.312 Z-0.435
X-31.711 Y-14.299 Z-0.444
X-31.692 Y-14.274 Z-0.454
X-31.688 Y-14.243 Z-0.463
X-31.699 Y-14.214 Z-0.472
X-31.723 Y-14.194 Z-0.481
X-31.753 Y-14.188 Z-0.491
X-31.783 Y-14.197 Z-0.5
X-31.805 Y-14.22 Z-0.509
X-31.812 Y-14.25 Z-0.519
X-31.805 Y-14.28 Z-0.528
X-31.783 Y-14.303 Z-0.537
X-31.754 Y-14.312 Z-0.546
X-31.723 Y-14.306 Z-0.556
X-31.699 Y-14.286 Z-0.565
X-31.688 Y-14.257 Z-0.574
X-31.692 Y-14.226 Z-0.583
X-31.711 Y-14.201 Z-0.593
X-31.739 Y-14.188 Z-0.602
X-31.77 Y-14.191 Z-0.611
X-31.796 Y-14.208 Z-0.62
X-31.811 Y-14.236 Z-0.63
X-31.81 Y-14.267 Z-0.639
X-31.794 Y-14.294 Z-0.648
X-31.768 Y-14.31 Z-0.657
X-31.736 Y-14.311 Z-0.667
X-31.709 Y-14.297 Z-0.676
X-31.691 Y-14.271 Z-0.685
X-31.688 Y-14.24 Z-0.694
X-31.701 Y-14.211 Z-0.704
X-31.726 Y-14.192 Z-0.713
X-31.757 Y-14.188 Z-0.722
X-31.786 Y-14.199 Z-0.731
X-31.806 Y-14.223 Z-0.741
X-31.812 Y-14.253 Z-0.75
X-31.803 Y-14.283 Z-0.759
X-31.78 Y-14.305 Z-0.769
X-31.75 Y-14.312 Z-0.778
X-31.72 Y-14.305 Z-0.787
X-31.697 Y-14.283 Z-0.796
X-31.688 Y-14.254 Z-0.806
X-31.694 Y-14.223 Z-0.815
X-31.714 Y-14.199 Z-0.824
X-31.743 Y-14.188 Z-0.833
X-31.774 Y-14.192 Z-0.843
X-31.799 Y-14.211 Z-0.852
X-31.812 Y-14.239 Z-0.861
X-31.809 Y-14.27 Z-0.87
X-31.792 Y-14.296 Z-0.88
X-31.764 Y-14.311 Z-0.889
X-31.733 Y-14.31 Z-0.898
X-31.706 Y-14.294 Z-0.907
X-31.69 Y-14.268 Z-0.917
X-31.689 Y-14.236 Z-0.926
X-31.703 Y-14.209 Z-0.935
X-31.729 Y-14.191 Z-0.944
X-31.76 Y-14.188 Z-0.954
X-31.789 Y-14.201 Z-0.963
X-31.808 Y-14.226 Z-0.972
X-31.812 Y-14.257 Z-0.981
X-31.801 Y-14.286 Z-0.991
X-31.777 Y-14.306 Z-1
X-31.747 Y-14.312 Z-1.009
X-31.717 Y-14.303 Z-1.019
X-31.695 Y-14.281 Z-1.028
X-31.688 Y-14.25 Z-1.037
X-31.695 Y-14.22 Z-1.046
X-31.716 Y-14.197 Z-1.056
X-31.746 Y-14.188 Z-1.065
X-31.777 Y-14.194 Z-1.074
X-31.801 Y-14.214 Z-1.083
X-31.812 Y-14.243 Z-1.093
X-31.808 Y-14.274 Z-1.102
X-31.789 Y-14.299 Z-1.111
X-31.761 Y-14.312 Z-1.12
X-31.73 Y-14.309 Z-1.13
X-31.704 Y-14.292 Z-1.139
X-31.689 Y-14.264 Z-1.148
X-31.69 Y-14.233 Z-1.157
X-31.706 Y-14.206 Z-1.167
X-31.732 Y-14.19 Z-1.176
X-31.763 Y-14.189 Z-1.185
X-31.791 Y-14.203 Z-1.194
X-31.809 Y-14.229 Z-1.204
X-31.812 Y-14.26 Z-1.213
X-31.799 Y-14.289 Z-1.222
X-31.774 Y-14.308 Z-1.231
X-31.743 Y-14.312 Z-1.241
X-31.714 Y-14.301 Z-1.25
G3 X-31.786 Y-14.199 I-0.036 J0.051
X-31.714 Y-14.301 I0.036 J-0.051
G1 X-31.704 Y-14.289 F1275
X-31.701 Y-14.273
X-31.706 Y-14.258
X-31.75 Y-14.25
G0 Z5
X31.75
Z1.683
G1 Z0 F1275
X31.719 Y-14.219
X31.703 Y-14.223
X31.692 Y-14.234
X31.688 Y-14.25
X31.695 Y-14.28 Z-0.009 F1274.9
X31.717 Y-14.303 Z-0.019
X31.746 Y-14.312 Z-0.028
X31.777 Y-14.306 Z-0.037
X31.801 Y-14.286 Z-0.046
X31.812 Y-14.257 Z-0.056
X31.808 Y-14.226 Z-0.065
X31.789 Y-14.201 Z-0.074
X31.76 Y-14.188 Z-0.083
X31.729 Y-14.191 Z-0.093
X31.703 Y-14.208 Z-0.102
X31.689 Y-14.236 Z-0.111
X31.69 Y-14.267 Z-0.12
X31.706 Y-14.294 Z-0.13
X31.733 Y-14.31 Z-0.139
X31.764 Y-14.311 Z-0.148
X31.792 Y-14.297 Z-0.157
X31.809 Y-14.271 Z-0.167
X31.812 Y-14.24 Z-0.176
X31.799 Y-14.211 Z-0.185
X31.774 Y-14.192 Z-0.194
X31.743 Y-14.188 Z-0.204
X31.714 Y-14.199 Z-0.213
X31.694 Y-14.223 Z-0.222
X31.688 Y-14.253 Z-0.231
X31.697 Y-14.283 Z-0.241
X31.72 Y-14.305 Z-0.25
X31.75 Y-14.313 Z-0.259
X31.78 Y-14.305 Z-0.269
X31.803 Y-14.283 Z-0.278
X31.812 Y-14.254 Z-0.287
X31.806 Y-14.223 Z-0.296
X31.786 Y-14.199 Z-0.306
X31.757 Y-14.188 Z-0.315
X31.726 Y-14.192 Z-0.324
X31.701 Y-14.211 Z-0.333
X31.688 Y-14.239 Z-0.343
X31.691 Y-14.271 Z-0.352
X31.708 Y-14.297 Z-0.361
X31.736 Y-14.311 Z-0.37
X31.767 Y-14.31 Z-0.38
X31.794 Y-14.294 Z-0.389
X31.81 Y-14.267 Z-0.398
X31.811 Y-14.236 Z-0.407
X31.797 Y-14.208 Z-0.417
X31.771 Y-14.191 Z-0.426
X31.74 Y-14.188 Z-0.435
X31.711 Y-14.201 Z-0.444
X31.692 Y-14.226 Z-0.454
X31.688 Y-14.257 Z-0.463
X31.699 Y-14.286 Z-0.472
X31.723 Y-14.306 Z-0.481
X31.753 Y-14.312 Z-0.491
X31.783 Y-14.303 Z-0.5
X31.805 Y-14.28 Z-0.509
X31.812 Y-14.25 Z-0.519
X31.805 Y-14.22 Z-0.528
X31.783 Y-14.197 Z-0.537
X31.754 Y-14.188 Z-0.546
X31.723 Y-14.194 Z-0.556
X31.699 Y-14.214 Z-0.565
X31.688 Y-14.243 Z-0.574
X31.692 Y-14.274 Z-0.583
X31.711 Y-14.299 Z-0.593
X31.739 Y-14.312 Z-0.602
X31.77 Y-14.309 Z-0.611
X31.796 Y-14.292 Z-0.62
X31.811 Y-14.264 Z-0.63
X31.81 Y-14.233 Z-0.639
X31.794 Y-14.206 Z-0.648
X31.768 Y-14.19 Z-0.657
X31.736 Y-14.189 Z-0.667
X31.709 Y-14.203 Z-0.676
X31.691 Y-14.229 Z-0.685
X31.688 Y-14.26 Z-0.694
X31.701 Y-14.289 Z-0.704
X31.726 Y-14.308 Z-0.713
X31.757 Y-14.312 Z-0.722
X31.786 Y-14.301 Z-0.731
X31.806 Y-14.277 Z-0.741
X31.812 Y-14.247 Z-0.75
X31.803 Y-14.217 Z-0.759
X31.78 Y-14.195 Z-0.769
X31.75 Y-14.188 Z-0.778
X31.72 Y-14.195 Z-0.787
X31.697 Y-14.217 Z-0.796
X31.688 Y-14.246 Z-0.806
X31.694 Y-14.277 Z-0.815
X31.714 Y-14.301 Z-0.824
X31.743 Y-14.312 Z-0.833
X31.774 Y-14.308 Z-0.843
X31.799 Y-14.289 Z-0.852
X31.812 Y-14.261 Z-0.861
X31.809 Y-14.23 Z-0.87
X31.792 Y-14.204 Z-0.88
X31.764 Y-14.189 Z-0.889
X31.733 Y-14.19 Z-0.898
X31.706 Y-14.206 Z-0.907
X31.69 Y-14.232 Z-0.917
X31.689 Y-14.264 Z-0.926
X31.703 Y-14.291 Z-0.935
X31.729 Y-14.309 Z-0.944
X31.76 Y-14.312 Z-0.954
X31.789 Y-14.299 Z-0.963
X31.808 Y-14.274 Z-0.972
X31.812 Y-14.243 Z-0.981
X31.801 Y-14.214 Z-0.991
X31.777 Y-14.194 Z-1
X31.747 Y-14.188 Z-1.009
X31.717 Y-14.197 Z-1.019
X31.695 Y-14.219 Z-1.028
X31.688 Y-14.25 Z-1.037
X31.695 Y-14.28 Z-1.046
X31.716 Y-14.303 Z-1.056
X31.746 Y-14.312 Z-1.065
X31.777 Y-14.306 Z-1.074
X31.801 Y-14.286 Z-1.083
X31.812 Y-14.257 Z-1.093
X31.808 Y-14.226 Z-1.102
X31.789 Y-14.201 Z-1.111
X31.761 Y-14.188 Z-1.12
X31.73 Y-14.191 Z-1.13
X31.704 Y-14.208 Z-1.139
X31.689 Y-14.236 Z-1.148
X31.69 Y-14.267 Z-1.157
X31.706 Y-14.294 Z-1.167
X31.732 Y-14.31 Z-1.176
X31.763 Y-14.311 Z-1.185
X31.791 Y-14.297 Z-1.194
X31.809 Y-14.271 Z-1.204
X31.812 Y-14.24 Z-1.213
X31.799 Y-14.211 Z-1.222
X31.774 Y-14.192 Z-1.231
X31.743 Y-14.188 Z-1.241
X31.714 Y-14.199 Z-1.25
G3 X31.786 Y-14.301 I0.036 J-0.051
X31.714 Y-14.199 I-0.036 J0.051
G1 X31.704 Y-14.211 F1275
X31.701 Y-14.227
X31.706 Y-14.242
X31.75 Y-14.25
G0 Z5
X20.243 Y-0.219
Z2
G1 Z0.317 F1275
G18 G2 X20.56 Z0 I0.317 K0
G1 X20.719
G17 G3 X20.938 Y0 I0 J0.219
X20.063 Y0 Z-0.071 I-0.438 J0 F1274.9
X20.937 Y0 Z-0.141 I0.437 J0
X20.063 Y0 Z-0.212 I-0.437 J0
X20.937 Y0 Z-0.283 I0.437 J0
X20.063 Y0 Z-0.354 I-0.437 J0
X20.937 Y0 Z-0.424 I0.437 J0
X20.063 Y0 Z-0.495 I-0.437 J0
X20.937 Y0 Z-0.566 I0.437 J0
X20.063 Y0 Z-0.636 I-0.437 J0
X20.937 Y0 Z-0.707 I0.437 J0
X20.063 Y0 Z-0.778 I-0.437 J0
X20.937 Y0 Z-0.849 I0.437 J0
X20.063 Y0 Z-0.919 I-0.437 J0
X20.937 Y0 Z-0.99 I0.437 J0
X20.063 Y0 Z-1.061 I-0.437 J0
X20.937 Y0 Z-1.131 I0.437 J0
X20.063 Y0 Z-1.202 I-0.437 J0
X20.731 Y-0.372 Z-1.25 I0.437 J0
X20.269 Y0.372 I-0.231 J0.372
X20.731 Y-0.372 I0.231 J-0.372
X20.801 Y-0.071 I-0.115 J0.186 F1275
G1 X20.718 Y0.064
X20.68 Y0.124 Z-1.242
X20.645 Y0.181 Z-1.219
X20.613 Y0.233 Z-1.181
X20.587 Y0.275 Z-1.13
X20.567 Y0.307 Z-1.07
X20.554 Y0.327 Z-1.003
X20.55 Y0.334 Z-0.933
G0 Z5
X31.75 Y14.25
Z1.683
G1 Z0 F1275
X31.781 Y14.219
X31.797 Y14.223
X31.808 Y14.234
X31.813 Y14.25
X31.805 Y14.28 Z-0.009 F1274.9
X31.783 Y14.303 Z-0.019
X31.754 Y14.312 Z-0.028
X31.723 Y14.306 Z-0.037
X31.699 Y14.286 Z-0.046
X31.688 Y14.257 Z-0.056
X31.692 Y14.226 Z-0.065
X31.711 Y14.201 Z-0.074
X31.74 Y14.188 Z-0.083
X31.771 Y14.191 Z-0.093
X31.797 Y14.208 Z-0.102
X31.811 Y14.236 Z-0.111
X31.81 Y14.267 Z-0.12
X31.794 Y14.294 Z-0.13
X31.767 Y14.31 Z-0.139
X31.736 Y14.311 Z-0.148
X31.708 Y14.297 Z-0.157
X31.691 Y14.271 Z-0.167
X31.688 Y14.24 Z-0.176
X31.701 Y14.211 Z-0.185
X31.726 Y14.192 Z-0.194
X31.757 Y14.188 Z-0.204
X31.786 Y14.199 Z-0.213
X31.806 Y14.223 Z-0.222
X31.812 Y14.253 Z-0.231
X31.803 Y14.283 Z-0.241
X31.78 Y14.305 Z-0.25
X31.75 Y14.313 Z-0.259
X31.72 Y14.305 Z-0.269
X31.697 Y14.283 Z-0.278
X31.688 Y14.254 Z-0.287
X31.694 Y14.223 Z-0.296
X31.714 Y14.199 Z-0.306
X31.743 Y14.188 Z-0.315
X31.774 Y14.192 Z-0.324
X31.799 Y14.211 Z-0.333
X31.812 Y14.239 Z-0.343
X31.809 Y14.271 Z-0.352
X31.792 Y14.297 Z-0.361
X31.764 Y14.311 Z-0.37
X31.733 Y14.31 Z-0.38
X31.706 Y14.294 Z-0.389
X31.69 Y14.267 Z-0.398
X31.689 Y14.236 Z-0.407
X31.703 Y14.208 Z-0.417
X31.729 Y14.191 Z-0.426
X31.76 Y14.188 Z-0.435
X31.789 Y14.201 Z-0.444
X31.808 Y14.226 Z-0.454
X31.812 Y14.257 Z-0.463
X31.801 Y14.286 Z-0.472
X31.777 Y14.306 Z-0.481
X31.747 Y14.312 Z-0.491
X31.717 Y14.303 Z-0.5
X31.695 Y14.28 Z-0.509
X31.688 Y14.25 Z-0.519
X31.695 Y14.22 Z-0.528
X31.717 Y14.197 Z-0.537
X31.746 Y14.188 Z-0.546
X31.777 Y14.194 Z-0.556
X31.801 Y14.214 Z-0.565
X31.812 Y14.243 Z-0.574
X31.808 Y14.274 Z-0.583
X31.789 Y14.299 Z-0.593
X31.761 Y14.312 Z-0.602
X31.73 Y14.309 Z-0.611
X31.704 Y14.292 Z-0.62
X31.689 Y14.264 Z-0.63
X31.69 Y14.233 Z-0.639
X31.706 Y14.206 Z-0.648
X31.732 Y14.19 Z-0.657
X31.764 Y14.189 Z-0.667
X31.791 Y14.203 Z-0.676
X31.809 Y14.229 Z-0.685
X31.812 Y14.26 Z-0.694
X31.799 Y14.289 Z-0.704
X31.774 Y14.308 Z-0.713
X31.743 Y14.312 Z-0.722
X31.714 Y14.301 Z-0.731
X31.694 Y14.277 Z-0.741
X31.688 Y14.247 Z-0.75
X31.697 Y14.217 Z-0.759
X31.72 Y14.195 Z-0.769
X31.75 Y14.188 Z-0.778
X31.78 Y14.195 Z-0.787
X31.803 Y14.217 Z-0.796
X31.812 Y14.246 Z-0.806
X31.806 Y14.277 Z-0.815
X31.786 Y14.301 Z-0.824
X31.757 Y14.312 Z-0.833
X31.726 Y14.308 Z-0.843
X31.701 Y14.289 Z-0.852
X31.688 Y14.261 Z-0.861
X31.691 Y14.23 Z-0.87
X31.708 Y14.204 Z-0.88
X31.736 Y14.189 Z-0.889
X31.767 Y14.19 Z-0.898
X31.794 Y14.206 Z-0.907
X31.81 Y14.232 Z-0.917
X31.811 Y14.264 Z-0.926
X31.797 Y14.291 Z-0.935
X31.771 Y14.309 Z-0.944
X31.74 Y14.312 Z-0.954
X31.711 Y14.299 Z-0.963
X31.692 Y14.274 Z-0.972
X31.688 Y14.243 Z-0.981
X31.699 Y14.214 Z-0.991
X31.723 Y14.194 Z-1
X31.753 Y14.188 Z-1.009
X31.783 Y14.197 Z-1.019
X31.805 Y14.219 Z-1.028
X31.812 Y14.25 Z-1.037
X31.805 Y14.28 Z-1.046
X31.784 Y14.303 Z-1.056
X31.754 Y14.312 Z-1.065
X31.723 Y14.306 Z-1.074
X31.699 Y14.286 Z-1.083
X31.688 Y14.257 Z-1.093
X31.692 Y14.226 Z-1.102
X31.711 Y14.201 Z-1.111
X31.739 Y14.188 Z-1.12
X31.77 Y14.191 Z-1.13
X31.796 Y14.208 Z-1.139
X31.811 Y14.236 Z-1.148
X31.81 Y14.267 Z-1.157
X31.794 Y14.294 Z-1.167
X31.768 Y14.31 Z-1.176
X31.737 Y14.311 Z-1.185
X31.709 Y14.297 Z-1.194
X31.691 Y14.271 Z-1.204
X31.688 Y14.24 Z-1.213
X31.701 Y14.211 Z-1.222
X31.726 Y14.192 Z-1.231
X31.757 Y14.188 Z-1.241
X31.786 Y14.199 Z-1.25
G3 X31.714 Y14.301 I-0.036 J0.051
X31.786 Y14.199 I0.036 J-0.051
G1 X31.796 Y14.211 F1275
X31.799 Y14.227
X31.794 Y14.242
X31.75 Y14.25
G0 Z15