(ROV-300-36)
(T1  D=6 CR=0 - ZMIN=-4.588 - flat end mill)
(2D Adaptive1)
T1
S12000 M3
G54
M8
G0 X-107.786 Y-82.054
Z15
Z5
Z-3.388
G1 Z-3.987 F2388.4
X-107.779 Y-82.05 Z-4.081
X-107.761 Y-82.038 Z-4.173
X-107.73 Y-82.02 Z-4.26
X-107.688 Y-81.994 Z-4.34
X-107.636 Y-81.962 Z-4.412
X-107.575 Y-81.924 Z-4.473
X-107.507 Y-81.882 Z-4.522
X-107.433 Y-81.837 Z-4.558
X-107.355 Y-81.789 Z-4.58
X-107.275 Y-81.74 Z-4.588
G3 X-104.666 Y-79.719 I-8.02 J13.05
G1 X-104.588 Y-79.639
X-104.961 Y-78.835
X-105.173 Y-77.975
X-105.265 Y-77.094
X-105.293 Y-76.208
X-105.299 Y-75.322
X-105.3 Y-73.55
Y-29.243
Y21.266
Y71.775
Y77.091
X-105.097 Y77.954
X-104.658 Y78.723
X-104.03 Y79.349
X-103.27 Y79.804
X-102.431 Y80.089
X-101.556 Y80.232
X-100.672 Y80.284
X-99.786 Y80.297
X-98.9 Y80.299
X-70.544 Y80.3
X-61.682
X-11.173
X39.336
X89.845
X102.25
X103.101 Y80.052
X103.848 Y79.574
X104.444 Y78.919
X104.867 Y78.141
X105.124 Y77.293
X105.247 Y76.415
X105.288 Y75.53
X105.298 Y74.644
X105.3 Y73.758
Y43.629
Y-6.88
Y-57.389
Y-76.883
X105.159 Y-77.758
X104.771 Y-78.555
X104.182 Y-79.217
X103.448 Y-79.713
X102.623 Y-80.037
X101.754 Y-80.209
X100.87 Y-80.277
X99.984 Y-80.295
X99.098 Y-80.299
X95.554 Y-80.3
X76.059
X25.55
X-24.959
X-75.468
X-101.166
X-102.052 Y-80.288
X-102.896 Y-80.019
X-103.635 Y-79.53
X-104.227 Y-78.87
X-104.65 Y-78.091
X-104.91 Y-77.244
X-105.038 Y-76.368
X-105.085 Y-75.483
X-105.097 Y-74.597
X-105.099 Y-73.711
X-105.1 Y-57.76
Y-7.251
Y43.258
Y76.044
X-105.034 Y76.928
X-104.749 Y77.767
X-104.262 Y78.507
X-103.613 Y79.111
X-102.849 Y79.559
X-102.011 Y79.849
X-101.14 Y80.007
X-100.256 Y80.074
X-99.37 Y80.094
X-98.484 Y80.099
X-96.712 Y80.1
X-89.623
X-39.114
X11.395
X61.904
X100.894
X101.78 Y80.073
X102.63 Y79.824
X103.391 Y79.37
X104.021 Y78.747
X104.494 Y77.998
X104.81 Y77.17
X104.988 Y76.302
X105.066 Y75.419
X105.092 Y74.533
X105.098 Y73.647
X105.1 Y72.761
Y70.989
Y20.48
Y-30.029
Y-76.108
X105.017 Y-76.99
X104.716 Y-77.823
X104.218 Y-78.556
X103.558 Y-79.148
X102.787 Y-79.584
X101.946 Y-79.864
X101.073 Y-80.013
X100.189 Y-80.076
X99.303 Y-80.095
X98.417 Y-80.099
X96.645 Y-80.1
X52.338
X1.829
X-48.68
X-99.189
X-100.961
X-101.841 Y-79.996
X-102.667 Y-79.675
X-103.388 Y-79.16
X-103.971 Y-78.492
X-104.396 Y-77.715
X-104.668 Y-76.872
X-104.816 Y-75.998
X-104.876 Y-75.114
X-104.894 Y-74.228
X-104.899 Y-73.342
X-104.9 Y-71.57
Y-33.466
Y17.043
Y67.552
Y75.527
X-104.843 Y76.411
X-104.592 Y77.261
X-104.15 Y78.029
X-103.543 Y78.674
X-102.811 Y79.174
X-101.998 Y79.526
X-101.137 Y79.737
X-100.258 Y79.842
X-99.372 Y79.884
X-98.486 Y79.896
X-97.6 Y79.899
X-94.056 Y79.9
X-64.814
X-14.305
X36.204
X86.713
X100.005
X100.891 Y79.895
X101.768 Y79.767
X102.59 Y79.436
X103.312 Y78.922
X103.901 Y78.26
X104.339 Y77.49
X104.628 Y76.652
X104.791 Y75.781
X104.866 Y74.898
X104.891 Y74.012
X104.898 Y73.126
X104.9 Y72.24
Y45.656
Y-4.853
Y-55.362
Y-75.743
X104.798 Y-76.623
X104.5 Y-77.457
X104.015 Y-78.199
X103.374 Y-78.811
X102.618 Y-79.273
X101.79 Y-79.588
X100.923 Y-79.771
X100.041 Y-79.856
X99.155 Y-79.888
X98.269 Y-79.897
X97.383 Y-79.899
X87.636 Y-79.9
X77.002
X26.493
X-24.016
X-74.525
X-100.223
X-101.107 Y-79.853
X-101.962 Y-79.619
X-102.739 Y-79.193
X-103.399 Y-78.601
X-103.917 Y-77.882
X-104.285 Y-77.076
X-104.512 Y-76.22
X-104.631 Y-75.342
X-104.68 Y-74.457
X-104.695 Y-73.571
X-104.699 Y-72.685
X-104.7 Y-70.913
Y-57.621
Y-7.112
Y43.397
Y74.412
X-104.697 Y75.298
X-104.609 Y76.18
X-104.338 Y77.023
X-103.885 Y77.785
X-103.276 Y78.428
X-102.545 Y78.93
X-101.734 Y79.286
X-100.877 Y79.511
X-99.998 Y79.628
X-99.114 Y79.677
X-98.228 Y79.694
X-97.342 Y79.698
X-95.569 Y79.7
X-88.48
X-37.971
X12.538
X63.047
X99.378
X100.264 Y79.698
X101.146 Y79.616
X101.992 Y79.353
X102.758 Y78.906
X103.406 Y78.302
X103.915 Y77.577
X104.278 Y76.769
X104.504 Y75.912
X104.625 Y75.034
X104.677 Y74.149
X104.694 Y73.263
X104.699 Y72.377
X104.7 Y70.605
Y68.833
Y18.324
Y-32.185
Y-74.719
X104.683 Y-75.605
X104.534 Y-76.479
X104.199 Y-77.299
X103.689 Y-78.024
X103.033 Y-78.619
X102.27 Y-79.07
X101.439 Y-79.378
X100.572 Y-79.562
X99.691 Y-79.651
X98.805 Y-79.685
X97.919 Y-79.696
X97.033 Y-79.699
X94.375 Y-79.7
X49.182
X-1.327
X-51.836
X-99.686
X-100.572 Y-79.669
X-101.437 Y-79.478
X-102.24 Y-79.103
X-102.94 Y-78.559
X-103.508 Y-77.88
X-103.934 Y-77.102
X-104.217 Y-76.263
X-104.38 Y-75.392
X-104.458 Y-74.509
X-104.488 Y-73.623
X-104.497 Y-72.737
X-104.499 Y-71.851
X-104.5 Y-65.648
Y-29.317
Y21.192
Y71.701
Y74.359
X-104.479 Y75.245
X-104.336 Y76.12
X-104.016 Y76.946
X-103.525 Y77.684
X-102.888 Y78.299
X-102.14 Y78.775
X-101.32 Y79.11
X-100.459 Y79.32
X-99.58 Y79.431
X-98.695 Y79.477
X-97.809 Y79.493
X-96.923 Y79.498
X-96.036 Y79.5
X-59.705
X-9.196
X41.313
X91.822
X98.911
X99.797 Y79.499
X100.68 Y79.432
X101.536 Y79.202
X102.323 Y78.794
X103.003 Y78.226
X103.552 Y77.53
X103.96 Y76.744
X104.229 Y75.9
X104.384 Y75.027
X104.458 Y74.144
X104.488 Y73.258
X104.497 Y72.372
X104.499 Y71.486
X104.5 Y67.056
Y39.586
Y-10.923
Y-61.432
Y-73.838
X104.497 Y-74.724
X104.442 Y-75.609
X104.227 Y-76.468
X103.834 Y-77.263
X103.28 Y-77.954
X102.592 Y-78.513
X101.81 Y-78.929
X100.969 Y-79.21
X100.099 Y-79.375
X99.216 Y-79.455
X98.331 Y-79.486
X97.445 Y-79.496
X96.559 Y-79.499
X93.9 Y-79.5
X69.975
X19.466
X-31.043
X-81.552
X-99.275
X-100.16 Y-79.471
X-101.03 Y-79.301
X-101.844 Y-78.951
X-102.565 Y-78.436
X-103.162 Y-77.781
X-103.621 Y-77.023
X-103.941 Y-76.197
X-104.135 Y-75.332
X-104.236 Y-74.452
X-104.279 Y-73.567
X-104.294 Y-72.681
X-104.298 Y-71.795
X-104.3 Y-70.022
Y-49.642
Y0.867
Y51.376
Y73.529
X-104.295 Y74.416
X-104.236 Y75.3
X-104.023 Y76.16
X-103.64 Y76.959
X-103.096 Y77.659
X-102.42 Y78.232
X-101.647 Y78.665
X-100.813 Y78.964
X-99.946 Y79.147
X-99.065 Y79.242
X-98.18 Y79.281
X-97.294 Y79.294
X-96.408 Y79.298
X-94.636 Y79.3
X-79.572
X-29.063
X21.446
X71.956
X98.539
X99.425 Y79.299
X100.309 Y79.235
X101.169 Y79.021
X101.966 Y78.634
X102.664 Y78.087
X103.236 Y77.411
X103.671 Y76.639
X103.97 Y75.805
X104.148 Y74.937
X104.24 Y74.055
X104.28 Y73.17
X104.294 Y72.284
X104.298 Y71.398
X104.3 Y69.626
Y58.992
Y8.483
Y-42.026
Y-73.04
X104.299 Y-73.926
X104.281 Y-74.812
X104.16 Y-75.69
X103.872 Y-76.528
X103.415 Y-77.287
X102.808 Y-77.933
X102.084 Y-78.444
X101.279 Y-78.815
X100.428 Y-79.059
X99.553 Y-79.199
X98.669 Y-79.264
X97.783 Y-79.289
X96.897 Y-79.297
X96.011 Y-79.299
X91.58 Y-79.3
X88.922
X38.413
X-12.096
X-62.605
X-98.936
X-99.822 Y-79.268
X-100.693 Y-79.106
X-101.513 Y-78.77
X-102.245 Y-78.271
X-102.859 Y-77.632
X-103.339 Y-76.887
X-103.682 Y-76.07
X-103.898 Y-75.211
X-104.015 Y-74.332
X-104.07 Y-73.448
X-104.091 Y-72.562
X-104.097 Y-71.676
X-104.099 Y-70.79
X-104.1 Y-68.131
Y-17.622
Y32.887
Y72.762
X-104.098 Y73.648
X-104.076 Y74.534
X-103.952 Y75.412
X-103.665 Y76.25
X-103.214 Y77.013
X-102.615 Y77.665
X-101.898 Y78.187
X-101.1 Y78.571
X-100.252 Y78.828
X-99.379 Y78.98
X-98.496 Y79.056
X-97.61 Y79.085
X-96.724 Y79.095
X-95.838 Y79.099
X-94.066 Y79.1
X-47.101
X3.408
X53.917
X98.223
X99.109 Y79.099
X99.993 Y79.033
X100.854 Y78.827
X101.657 Y78.45
X102.364 Y77.917
X102.951 Y77.253
X103.404 Y76.491
X103.723 Y75.665
X103.919 Y74.8
X104.024 Y73.921
X104.073 Y73.036
X104.091 Y72.15
X104.097 Y71.264
X104.099 Y70.378
X104.1 Y62.402
Y26.071
Y-24.438
Y-73.174
X104.093 Y-74.06
X104.038 Y-74.945
X103.84 Y-75.809
X103.476 Y-76.617
X102.953 Y-77.332
X102.295 Y-77.925
X101.536 Y-78.382
X100.711 Y-78.705
X99.849 Y-78.91
X98.97 Y-79.023
X98.085 Y-79.073
X97.199 Y-79.092
X96.313 Y-79.097
X95.427 Y-79.099
X88.338 Y-79.1
X55.551
X5.042
X-45.467
X-95.976
X-98.634
X-99.519 Y-79.064
X-100.391 Y-78.905
X-101.215 Y-78.578
X-101.954 Y-78.089
X-102.579 Y-77.461
X-103.074 Y-76.726
X-103.433 Y-75.916
X-103.666 Y-75.061
X-103.797 Y-74.185
X-103.861 Y-73.301
X-103.887 Y-72.415
X-103.896 Y-71.529
X-103.899 Y-70.643
X-103.9 Y-67.985
Y-34.312
Y16.197
Y66.706
X-103.899 Y72.909
X-103.891 Y73.795
X-103.832 Y74.679
X-103.632 Y75.543
X-103.271 Y76.352
X-102.753 Y77.071
X-102.101 Y77.671
X-101.347 Y78.137
X-100.527 Y78.471
X-99.667 Y78.688
X-98.79 Y78.81
X-97.905 Y78.868
X-97.02 Y78.889
X-96.133 Y78.897
X-95.247 Y78.899
X-91.703 Y78.9
X-63.347
X-12.838
X37.671
X88.18
X97.927
X98.814 Y78.899
X99.697 Y78.831
X100.56 Y78.63
X101.366 Y78.262
X102.081 Y77.739
X102.68 Y77.085
X103.146 Y76.332
X103.481 Y75.511
X103.692 Y74.651
X103.809 Y73.772
X103.865 Y72.888
X103.888 Y72.002
X103.896 Y71.116
X103.899 Y70.23
X103.9 Y67.572
Y41.874
Y-8.635
Y-59.144
Y-72.436
X103.898 Y-73.322
X103.875 Y-74.208
X103.758 Y-75.086
X103.484 Y-75.929
X103.048 Y-76.701
X102.464 Y-77.367
X101.76 Y-77.905
X100.972 Y-78.309
X100.13 Y-78.585
X99.26 Y-78.755
X98.378 Y-78.843
X97.493 Y-78.881
X96.607 Y-78.894
X95.721 Y-78.898
X93.948 Y-78.9
X70.909
X20.4
X-30.109
X-80.618
X-98.34
X-99.226 Y-78.861
X-100.098 Y-78.705
X-100.924 Y-78.386
X-101.67 Y-77.907
X-102.306 Y-77.29
X-102.813 Y-76.563
X-103.188 Y-75.76
X-103.435 Y-74.909
X-103.578 Y-74.035
X-103.651 Y-73.152
X-103.683 Y-72.266
X-103.694 Y-71.38
X-103.698 Y-70.494
X-103.7 Y-68.722
Y-49.227
Y1.282
Y51.791
Y72.172
X-103.697 Y73.058
X-103.671 Y73.944
X-103.552 Y74.822
X-103.28 Y75.665
X-102.848 Y76.439
X-102.27 Y77.11
X-101.573 Y77.657
X-100.789 Y78.07
X-99.951 Y78.358
X-99.083 Y78.537
X-98.202 Y78.634
X-97.317 Y78.677
X-96.431 Y78.692
X-95.545 Y78.698
X-94.659 Y78.699
X-87.57 Y78.7
X-77.822
X-27.313
X23.196
X73.705
X97.63
X98.516 Y78.699
X99.4 Y78.632
X100.264 Y78.437
X101.075 Y78.079
X101.798 Y77.567
X102.408 Y76.924
X102.888 Y76.179
X103.238 Y75.365
X103.463 Y74.508
X103.592 Y73.632
X103.657 Y72.748
X103.685 Y71.862
X103.695 Y70.976
X103.698 Y70.09
X103.7 Y68.318
Y55.912
Y5.403
Y-45.106
Y-71.69
X103.699 Y-72.576
X103.691 Y-73.462
X103.635 Y-74.346
X103.448 Y-75.213
X103.103 Y-76.029
X102.602 Y-76.76
X101.965 Y-77.376
X101.224 Y-77.862
X100.412 Y-78.216
X99.558 Y-78.452
X98.682 Y-78.59
X97.799 Y-78.659
X96.913 Y-78.686
X96.027 Y-78.695
X95.141 Y-78.699
X93.369 Y-78.7
X84.508
X33.999
X-16.51
X-67.019
X-98.034
X-98.919 Y-78.662
X-99.792 Y-78.51
X-100.623 Y-78.203
X-101.377 Y-77.737
X-102.025 Y-77.132
X-102.547 Y-76.417
X-102.938 Y-75.621
X-103.2 Y-74.775
X-103.357 Y-73.903
X-103.44 Y-73.021
X-103.478 Y-72.135
X-103.492 Y-71.249
X-103.498 Y-70.363
X-103.499 Y-69.477
X-103.5 Y-62.388
Y-11.879
Y38.63
Y71.417
X-103.499 Y72.303
X-103.489 Y73.189
X-103.432 Y74.073
X-103.248 Y74.94
X-102.908 Y75.758
X-102.414 Y76.494
X-101.785 Y77.118
X-101.051 Y77.614
X-100.244 Y77.98
X-99.393 Y78.227
X-98.519 Y78.375
X-97.636 Y78.451
X-96.751 Y78.483
X-95.865 Y78.494
X-94.978 Y78.498
X-93.206 Y78.5
X-90.548
X-40.039
X10.47
X60.979
X97.31
X98.196 Y78.499
X99.08 Y78.437
X99.947 Y78.251
X100.764 Y77.909
X101.498 Y77.413
X102.122 Y76.784
X102.62 Y76.05
X102.987 Y75.244
X103.229 Y74.392
X103.372 Y73.517
X103.446 Y72.634
X103.48 Y71.749
X103.493 Y70.862
X103.498 Y69.976
X103.499 Y69.09
X103.5 Y68.204
Y17.695
Y-32.814
Y-71.803
X103.497 Y-72.689
X103.474 Y-73.575
X103.371 Y-74.455
X103.12 Y-75.305
X102.711 Y-76.091
X102.155 Y-76.781
X101.476 Y-77.35
X100.706 Y-77.789
X99.877 Y-78.101
X99.014 Y-78.303
X98.135 Y-78.416
X97.25 Y-78.469
X96.364 Y-78.489
X95.478 Y-78.496
X94.592 Y-78.499
X91.048 Y-78.5
X45.855
X-4.654
X-55.163
X-97.697
X-98.582 Y-78.466
X-99.457 Y-78.325
X-100.295 Y-78.037
X-101.06 Y-77.589
X-101.723 Y-77.002
X-102.264 Y-76.3
X-102.675 Y-75.515
X-102.957 Y-74.675
X-103.13 Y-73.806
X-103.226 Y-72.925
X-103.271 Y-72.04
X-103.29 Y-71.154
X-103.297 Y-70.268
X-103.299 Y-69.382
X-103.3 Y-65.837
Y-23.303
Y27.206
Y71.512
X-103.296 Y72.398
X-103.273 Y73.284
X-103.175 Y74.164
X-102.931 Y75.016
X-102.532 Y75.807
X-101.986 Y76.505
X-101.317 Y77.086
X-100.555 Y77.539
X-99.731 Y77.865
X-98.871 Y78.079
X-97.994 Y78.203
X-97.11 Y78.263
X-96.224 Y78.287
X-95.338 Y78.295
X-94.452 Y78.299
X-92.679 Y78.3
X-51.032
X-0.523
X49.986
X97.837
X98.722 Y78.247
X99.591 Y78.078
X100.418 Y77.759
X101.167 Y77.285
X101.811 Y76.676
X102.331 Y75.959
X102.721 Y75.163
X102.984 Y74.317
X103.145 Y73.445
X103.232 Y72.564
X103.273 Y71.679
X103.291 Y70.793
X103.297 Y69.906
X103.299 Y69.02
X103.3 Y65.476
Y28.259
Y-22.25
Y-70.987
X103.299 Y-71.873
X103.291 Y-72.759
X103.246 Y-73.644
X103.093 Y-74.517
X102.786 Y-75.348
X102.325 Y-76.105
X101.726 Y-76.758
X101.015 Y-77.287
X100.224 Y-77.687
X99.383 Y-77.965
X98.514 Y-78.14
X97.633 Y-78.234
X96.748 Y-78.275
X95.862 Y-78.291
X94.976 Y-78.297
X94.09 Y-78.299
X89.659 Y-78.3
X55.986
X5.477
X-45.032
X-95.541
X-97.313
X-98.199 Y-78.275
X-99.076 Y-78.152
X-99.922 Y-77.889
X-100.703 Y-77.469
X-101.387 Y-76.906
X-101.954 Y-76.225
X-102.391 Y-75.454
X-102.698 Y-74.623
X-102.894 Y-73.759
X-103.005 Y-72.88
X-103.061 Y-71.995
X-103.086 Y-71.11
X-103.095 Y-70.224
X-103.098 Y-69.337
X-103.1 Y-67.565
Y-33.006
Y17.503
Y68.012
Y70.67
X-103.099 Y71.556
X-103.091 Y72.442
X-103.049 Y73.327
X-102.907 Y74.202
X-102.614 Y75.038
X-102.168 Y75.804
X-101.582 Y76.469
X-100.884 Y77.014
X-100.102 Y77.431
X-99.266 Y77.727
X-98.401 Y77.916
X-97.521 Y78.021
X-96.636 Y78.069
X-95.75 Y78.089
X-94.864 Y78.096
X-93.978 Y78.099
X-91.32 Y78.1
X-60.305
X-9.796
X40.713
X91.222
X97.425
X98.31 Y78.062
X99.184 Y77.917
X100.022 Y77.63
X100.791 Y77.189
X101.46 Y76.608
X102.01 Y75.913
X102.429 Y75.133
X102.721 Y74.296
X102.906 Y73.429
X103.011 Y72.55
X103.064 Y71.665
X103.087 Y70.779
X103.095 Y69.893
X103.098 Y69.007
X103.1 Y67.235
Y37.106
Y-13.403
Y-63.912
Y-71.001
X103.098 Y-71.887
X103.082 Y-72.773
X103.011 Y-73.656
X102.815 Y-74.52
X102.464 Y-75.334
X101.963 Y-76.065
X101.332 Y-76.687
X100.599 Y-77.185
X99.795 Y-77.556
X98.946 Y-77.81
X98.073 Y-77.965
X97.191 Y-78.044
X96.305 Y-78.078
X95.419 Y-78.092
X94.533 Y-78.097
X93.647 Y-78.099
X88.33 Y-78.1
X64.405
X13.896
X-36.613
X-87.122
X-96.87
X-97.756 Y-78.085
X-98.636 Y-77.988
X-99.492 Y-77.759
X-100.293 Y-77.378
X-101.005 Y-76.851
X-101.604 Y-76.198
X-102.075 Y-75.447
X-102.416 Y-74.629
X-102.641 Y-73.772
X-102.776 Y-72.897
X-102.847 Y-72.013
X-102.88 Y-71.128
X-102.893 Y-70.242
X-102.898 Y-69.356
X-102.899 Y-68.469
X-102.9 Y-66.304
X-102.901 Y-66.21
X-102.906 Y-66.117
X-102.914 Y-66.023
X-102.974 Y-65.408
X-102.999 Y-64.804
X-103 Y-64.603
Y64.603
X-102.999 Y64.804
X-102.974 Y65.408
X-102.971 Y65.441
X-102.931 Y66.28
X-102.913 Y66.894
X-102.902 Y67.78
X-102.9 Y68.666
X-102.899 Y71.325
X-102.892 Y72.211
X-102.846 Y73.096
X-102.699 Y73.97
X-102.408 Y74.806
X-101.963 Y75.573
X-101.38 Y76.24
X-100.684 Y76.789
X-99.906 Y77.213
X-99.073 Y77.514
X-98.207 Y77.705
X-97.328 Y77.812
X-96.443 Y77.864
X-95.557 Y77.887
X-94.671 Y77.895
X-93.785 Y77.898
X-92.013 Y77.9
X-91.304
X-91.21 Y77.901
X-91.117 Y77.906
X-91.024 Y77.914
X-90.596 Y77.956
X-90.395 Y77.972
X-89.992 Y77.992
X-89.791 Y78
X89.791
X89.992 Y77.992
X90.395 Y77.972
X90.456 Y77.967
X91.341 Y77.939
X91.815 Y77.921
X92.701 Y77.903
X93.587 Y77.901
X97.132 Y77.9
X98.017 Y77.863
X98.893 Y77.726
X99.735 Y77.451
X100.51 Y77.021
X101.188 Y76.451
X101.749 Y75.765
X102.182 Y74.992
X102.489 Y74.16
X102.685 Y73.296
X102.799 Y72.417
X102.857 Y71.533
X102.884 Y70.647
X102.894 Y69.761
X102.898 Y68.875
X102.9 Y67.103
Y66.304
X102.901 Y66.21
X102.906 Y66.117
X102.914 Y66.024
X102.974 Y65.408
X102.999 Y64.804
X103 Y64.603
Y-64.603
X102.999 Y-64.804
X102.974 Y-65.408
X102.971 Y-65.441
X102.931 Y-66.28
X102.913 Y-66.894
X102.902 Y-67.78
X102.9 Y-68.666
Y-70.439
X102.899 Y-71.325
X102.89 Y-72.211
X102.848 Y-73.096
X102.699 Y-73.969
X102.406 Y-74.806
X101.963 Y-75.573
X101.381 Y-76.241
X100.685 Y-76.79
X99.906 Y-77.212
X99.072 Y-77.511
X98.207 Y-77.704
X97.327 Y-77.812
X96.443 Y-77.865
X95.557 Y-77.887
X94.671 Y-77.896
X93.785 Y-77.899
X91.304 Y-77.9
X91.21 Y-77.901
X91.117 Y-77.906
X91.023 Y-77.914
X90.596 Y-77.956
X90.395 Y-77.972
X89.992 Y-77.992
X89.791 Y-78
X-89.791
X-89.992 Y-77.992
X-90.395 Y-77.972
X-90.456 Y-77.967
X-91.341 Y-77.939
X-91.815 Y-77.921
X-92.701 Y-77.903
X-93.587 Y-77.901
X-96.246 Y-77.9
X-97.132 Y-77.894
X-98.016 Y-77.842
X-98.886 Y-77.674
X-99.715 Y-77.36
X-100.471 Y-76.898
X-101.125 Y-76.299
X-101.656 Y-75.59
X-102.057 Y-74.8
X-102.337 Y-73.959
X-102.515 Y-73.091
X-102.616 Y-72.211
X-102.666 Y-71.326
X-102.688 Y-70.44
X-102.696 Y-69.554
X-102.699 Y-68.668
Y-68.004
X-102.707 Y-67.808
X-102.729 Y-67.613
X-102.766 Y-67.42
X-102.793 Y-67.219
X-102.855 Y-66.615
X-102.914 Y-66.023
G3 X-103.431 Y-65.508 I-0.595 J-0.08
G1 X-103.524 Y-65.496 Z-4.58
X-103.615 Y-65.484 Z-4.558
X-103.702 Y-65.473 Z-4.522
X-103.781 Y-65.463 Z-4.473
X-103.852 Y-65.453 Z-4.412
X-103.913 Y-65.446 Z-4.34
X-103.962 Y-65.439 Z-4.26
X-103.997 Y-65.435 Z-4.173
X-104.019 Y-65.432 Z-4.081
X-104.026 Y-65.431 Z-3.987
G0 Z5
X-89.234 Y-78.598
Z-3.388
G1 Z-3.987 F2388.4
X-89.24 Y-78.594 Z-4.081
X-89.258 Y-78.581 Z-4.173
X-89.288 Y-78.56 Z-4.26
X-89.328 Y-78.532 Z-4.34
X-89.377 Y-78.496 Z-4.412
X-89.436 Y-78.455 Z-4.473
X-89.501 Y-78.408 Z-4.522
X-89.572 Y-78.358 Z-4.558
X-89.647 Y-78.304 Z-4.58
X-89.723 Y-78.25 Z-4.588
G3 X-90.456 Y-77.967 I-0.918 J-1.289
G1 X-90.596 Y-77.956
X-91.804 Y-77.837
X-92.207 Y-77.793
X-93.091 Y-77.742
X-93.527 Y-77.724
X-94.332 Y-77.706
X-95.218 Y-77.701
X-96.104 Y-77.7
X-96.99 Y-77.69
X-97.874 Y-77.624
X-98.741 Y-77.445
X-99.565 Y-77.118
X-100.312 Y-76.641
X-100.954 Y-76.031
X-101.476 Y-75.314
X-101.871 Y-74.521
X-102.149 Y-73.679
X-102.321 Y-72.81
X-102.418 Y-71.929
X-102.466 Y-71.045
X-102.487 Y-70.159
X-102.495 Y-69.273
X-102.497 Y-68.826
X-102.511 Y-68.555
X-102.551 Y-68.287
X-102.617 Y-68.024
X-102.676 Y-67.813
X-102.766 Y-67.42
G3 X-103.344 Y-66.975 I-0.58 J-0.154
G1 X-103.438 Z-4.58
X-103.53 Y-66.974 Z-4.558
X-103.617 Z-4.522
X-103.697 Z-4.473
X-103.769 Z-4.412
X-103.83 Z-4.34
X-103.879 Z-4.26
X-103.915 Z-4.173
X-103.937 Z-4.081
X-103.944 Z-3.987
G0 Z5
X-91.001 Y-78.454
Z-3.388
G1 Z-3.987 F2388.4
X-91.007 Y-78.45 Z-4.081
X-91.025 Y-78.437 Z-4.173
X-91.054 Y-78.415 Z-4.26
X-91.093 Y-78.386 Z-4.34
X-91.142 Y-78.349 Z-4.412
X-91.199 Y-78.306 Z-4.473
X-91.263 Y-78.258 Z-4.522
X-91.333 Y-78.206 Z-4.558
X-91.406 Y-78.151 Z-4.58
X-91.481 Y-78.094 Z-4.588
G3 X-92.207 Y-77.793 I-0.95 J-1.266
G1 X-92.408 Y-77.772
X-92.655 Y-77.71
X-92.86 Y-77.67
X-93.007 Y-77.644
X-93.156 Y-77.623
X-93.311 Y-77.605
X-93.502 Y-77.585
X-93.705 Y-77.568
X-93.985 Y-77.55
X-94.391 Y-77.531
X-95.061 Y-77.511
X-95.947 Y-77.502
X-96.833 Y-77.485
X-97.716 Y-77.409
X-98.582 Y-77.22
X-99.4 Y-76.88
X-100.14 Y-76.393
X-100.775 Y-75.775
X-101.291 Y-75.054
X-101.682 Y-74.259
X-101.955 Y-73.416
X-102.124 Y-72.546
X-102.218 Y-71.665
X-102.265 Y-70.78
X-102.286 Y-69.894
X-102.291 Y-69.449
X-102.309 Y-69.195
X-102.35 Y-68.944
X-102.413 Y-68.697
X-102.617 Y-68.024
G3 X-103.226 Y-67.62 I-0.568 J-0.194
G1 X-103.319 Y-67.626 Z-4.58
X-103.411 Y-67.632 Z-4.558
X-103.497 Y-67.638 Z-4.522
X-103.577 Y-67.644 Z-4.473
X-103.649 Y-67.648 Z-4.412
X-103.71 Y-67.653 Z-4.34
X-103.759 Y-67.656 Z-4.26
X-103.795 Y-67.658 Z-4.173
X-103.817 Y-67.66 Z-4.081
X-103.824 Z-3.987
G0 Z5
X-91.55 Y-78.528
Z-3.388
G1 Z-3.987 F2388.4
X-91.555 Y-78.523 Z-4.081
X-91.571 Y-78.507 Z-4.173
X-91.596 Y-78.482 Z-4.26
X-91.631 Y-78.448 Z-4.34
X-91.675 Y-78.405 Z-4.412
X-91.726 Y-78.354 Z-4.473
X-91.783 Y-78.298 Z-4.522
X-91.845 Y-78.237 Z-4.558
X-91.91 Y-78.172 Z-4.58
X-91.977 Y-78.106 Z-4.588
G3 X-92.655 Y-77.71 I-1.112 J-1.126
G1 X-93.012 Y-77.621
X-93.173 Y-77.572
X-93.35 Y-77.528
X-93.496 Y-77.494
X-93.643 Y-77.467
X-93.792 Y-77.443
X-93.94 Y-77.424
X-94.126 Y-77.403
X-94.327 Y-77.384
X-94.58 Y-77.365
X-94.949 Y-77.343
X-95.835 Y-77.307
X-96.72 Y-77.28
X-97.602 Y-77.189
X-98.463 Y-76.982
X-99.273 Y-76.622
X-100.002 Y-76.118
X-100.625 Y-75.489
X-101.129 Y-74.759
X-101.508 Y-73.959
X-101.771 Y-73.112
X-101.932 Y-72.241
X-102.022 Y-71.359
X-102.066 Y-70.474
X-102.074 Y-70.168
X-102.093 Y-69.899
X-102.137 Y-69.634
X-102.206 Y-69.374
X-102.251 Y-69.232
X-102.413 Y-68.697
G3 X-103.022 Y-68.292 I-0.568 J-0.194
G1 X-103.115 Y-68.298 Z-4.58
X-103.207 Y-68.305 Z-4.558
X-103.293 Y-68.311 Z-4.522
X-103.373 Y-68.316 Z-4.473
X-103.445 Y-68.321 Z-4.412
X-103.506 Y-68.325 Z-4.34
X-103.555 Y-68.328 Z-4.26
X-103.591 Y-68.331 Z-4.173
X-103.613 Y-68.332 Z-4.081
X-103.62 Y-68.333 Z-3.987
G0 Z5
X-92.111 Y-78.446
Z-3.388
G1 Z-3.987 F2388.4
X-92.116 Y-78.441 Z-4.081
X-92.131 Y-78.424 Z-4.173
X-92.155 Y-78.398 Z-4.26
X-92.189 Y-78.361 Z-4.34
X-92.23 Y-78.316 Z-4.412
X-92.278 Y-78.263 Z-4.473
X-92.332 Y-78.204 Z-4.522
X-92.391 Y-78.14 Z-4.558
X-92.453 Y-78.072 Z-4.58
X-92.516 Y-78.003 Z-4.588
G3 X-93.173 Y-77.572 I-1.169 J-1.067
G1 X-93.777 Y-77.389
X-93.97 Y-77.341
X-94.116 Y-77.307
X-94.263 Y-77.279
X-94.411 Y-77.255
X-94.565 Y-77.234
X-94.765 Y-77.21
X-95.02 Y-77.184
X-95.35 Y-77.157
X-96.235 Y-77.1
X-97.118 Y-77.032
X-97.987 Y-76.856
X-98.815 Y-76.541
X-99.573 Y-76.082
X-100.233 Y-75.491
X-100.775 Y-74.79
X-101.193 Y-74.009
X-101.49 Y-73.174
X-101.682 Y-72.309
X-101.795 Y-71.43
X-101.84 Y-70.757
X-101.876 Y-70.458
X-101.943 Y-70.164
X-102.04 Y-69.879
X-102.058 Y-69.836
X-102.206 Y-69.374
G3 X-102.819 Y-68.976 I-0.565 J-0.201
G1 X-102.913 Y-68.984 Z-4.58
X-103.004 Y-68.991 Z-4.558
X-103.091 Y-68.998 Z-4.522
X-103.171 Y-69.004 Z-4.473
X-103.242 Y-69.01 Z-4.412
X-103.303 Y-69.014 Z-4.34
X-103.352 Y-69.018 Z-4.26
X-103.388 Y-69.021 Z-4.173
X-103.41 Y-69.023 Z-4.081
X-103.417 Z-3.987
G0 Z5
X-92.715 Y-78.263
Z-3.388
G1 Z-3.987 F2388.4
X-92.72 Y-78.257 Z-4.081
X-92.735 Y-78.241 Z-4.173
X-92.759 Y-78.214 Z-4.26
X-92.793 Y-78.178 Z-4.34
X-92.834 Y-78.133 Z-4.412
X-92.882 Y-78.08 Z-4.473
X-92.936 Y-78.021 Z-4.522
X-92.995 Y-77.957 Z-4.558
X-93.056 Y-77.889 Z-4.58
X-93.12 Y-77.82 Z-4.588
G3 X-93.777 Y-77.389 I-1.169 J-1.067
G1 X-94.22 Y-77.255
X-94.381 Y-77.204
X-94.583 Y-77.152
X-94.729 Y-77.117
X-94.876 Y-77.087
X-95.024 Y-77.061
X-95.198 Y-77.034
X-95.462 Y-76.999
X-95.906 Y-76.947
X-96.787 Y-76.86
X-97.657 Y-76.69
X-98.492 Y-76.392
X-99.261 Y-75.952
X-99.935 Y-75.378
X-100.496 Y-74.691
X-100.933 Y-73.92
X-101.246 Y-73.092
X-101.453 Y-72.23
X-101.578 Y-71.353
X-101.597 Y-71.179
X-101.603 Y-71.138
X-101.662 Y-70.824
X-101.755 Y-70.518
X-101.883 Y-70.225
X-101.977 Y-70.037
X-102.04 Y-69.879
G3 X-102.682 Y-69.529 I-0.549 J-0.243
G1 X-102.774 Y-69.544 Z-4.58
X-102.865 Y-69.558 Z-4.558
X-102.951 Y-69.571 Z-4.522
X-103.03 Y-69.584 Z-4.473
X-103.101 Y-69.595 Z-4.412
X-103.161 Y-69.604 Z-4.34
X-103.21 Y-69.612 Z-4.26
X-103.245 Y-69.618 Z-4.173
X-103.267 Y-69.621 Z-4.081
X-103.274 Y-69.622 Z-3.987
G0 Z5
X-93.327 Y-78.087
Z-3.388
G1 Z-3.987 F2388.4
X-93.332 Y-78.082 Z-4.081
X-93.347 Y-78.066 Z-4.173
X-93.371 Y-78.039 Z-4.26
X-93.404 Y-78.002 Z-4.34
X-93.444 Y-77.957 Z-4.412
X-93.492 Y-77.903 Z-4.473
X-93.546 Y-77.844 Z-4.522
X-93.604 Y-77.779 Z-4.558
X-93.665 Y-77.711 Z-4.58
X-93.728 Y-77.641 Z-4.588
G3 X-94.381 Y-77.204 I-1.178 J-1.056
G1 X-94.623 Y-77.125
X-94.824 Y-77.059
X-94.935 Y-77.02
X-95.097 Y-76.972
X-95.241 Y-76.933
X-95.387 Y-76.898
X-95.534 Y-76.867
X-95.706 Y-76.835
X-96.579 Y-76.686
X-97.446 Y-76.501
X-98.279 Y-76.199
X-99.046 Y-75.756
X-99.72 Y-75.18
X-100.281 Y-74.494
X-100.72 Y-73.725
X-101.037 Y-72.897
X-101.247 Y-72.036
X-101.324 Y-71.589
X-101.331 Y-71.553
X-101.399 Y-71.273
X-101.495 Y-71
X-101.618 Y-70.739
X-101.671 Y-70.641
X-101.775 Y-70.439
X-101.883 Y-70.225
G3 X-102.551 Y-69.929 I-0.527 J-0.287
G1 X-102.642 Y-69.951 Z-4.58
X-102.731 Y-69.973 Z-4.558
X-102.815 Y-69.993 Z-4.522
X-102.893 Y-70.012 Z-4.473
X-102.963 Y-70.029 Z-4.412
X-103.022 Y-70.044 Z-4.34
X-103.07 Y-70.055 Z-4.26
X-103.105 Y-70.064 Z-4.173
X-103.127 Y-70.069 Z-4.081
X-103.134 Y-70.071 Z-3.987
G0 Z5
X-93.912 Y-77.938
Z-3.388
G1 Z-3.987 F2388.4
X-93.916 Y-77.933 Z-4.081
X-93.93 Y-77.916 Z-4.173
X-93.954 Y-77.888 Z-4.26
X-93.985 Y-77.851 Z-4.34
X-94.024 Y-77.804 Z-4.412
X-94.07 Y-77.749 Z-4.473
X-94.122 Y-77.687 Z-4.522
X-94.178 Y-77.621 Z-4.558
X-94.237 Y-77.55 Z-4.58
X-94.297 Y-77.478 Z-4.588
G3 X-94.935 Y-77.02 I-1.213 J-1.016
G1 X-95.025 Y-76.989
X-95.136 Y-76.932
X-95.273 Y-76.87
X-95.412 Y-76.815
X-95.555 Y-76.767
X-95.698 Y-76.725
X-96.002 Y-76.643
X-96.861 Y-76.426
X-97.708 Y-76.166
X-98.504 Y-75.777
X-99.221 Y-75.255
X-99.833 Y-74.615
X-100.326 Y-73.879
X-100.697 Y-73.074
X-100.961 Y-72.228
X-100.991 Y-72.106
X-101.057 Y-71.874
X-101.143 Y-71.65
X-101.248 Y-71.433
G3 X-101.923 Y-71.155 I-0.519 J-0.301
G1 X-102.014 Y-71.179 Z-4.58
X-102.102 Y-71.203 Z-4.558
X-102.186 Y-71.226 Z-4.522
X-102.264 Y-71.247 Z-4.473
X-102.333 Y-71.265 Z-4.412
X-102.392 Y-71.281 Z-4.34
X-102.439 Y-71.294 Z-4.26
X-102.474 Y-71.304 Z-4.173
X-102.495 Y-71.309 Z-4.081
X-102.502 Y-71.311 Z-3.987
G0 Z5
X-94.249 Y-77.982
Z-3.388
G1 Z-3.987 F2388.4
X-94.253 Y-77.975 Z-4.081
X-94.264 Y-77.957 Z-4.173
X-94.283 Y-77.926 Z-4.26
X-94.31 Y-77.885 Z-4.34
X-94.342 Y-77.833 Z-4.412
X-94.38 Y-77.772 Z-4.473
X-94.423 Y-77.704 Z-4.522
X-94.469 Y-77.63 Z-4.558
X-94.517 Y-77.553 Z-4.58
X-94.567 Y-77.473 Z-4.588
G3 X-95.136 Y-76.932 I-1.341 J-0.84
G1 X-95.537 Y-76.725
X-95.679 Y-76.66
X-95.816 Y-76.6
X-95.956 Y-76.546
X-96.242 Y-76.442
X-97.08 Y-76.155
X-97.899 Y-75.817
X-98.655 Y-75.353
X-99.32 Y-74.767
X-99.874 Y-74.076
X-100.309 Y-73.304
X-100.533 Y-72.746
X-100.606 Y-72.576
X-100.689 Y-72.411
X-100.781 Y-72.251
G3 X-101.472 Y-72.011 I-0.501 J-0.33
G1 X-101.561 Y-72.041 Z-4.58
X-101.647 Y-72.07 Z-4.558
X-101.73 Y-72.097 Z-4.522
X-101.806 Y-72.123 Z-4.473
X-101.874 Y-72.145 Z-4.412
X-101.932 Y-72.165 Z-4.34
X-101.979 Y-72.18 Z-4.26
X-102.013 Y-72.191 Z-4.173
X-102.034 Y-72.198 Z-4.081
X-102.041 Y-72.201 Z-3.987
G0 Z5
X-94.654 Y-77.778
Z-3.388
G1 Z-3.987 F2388.4
X-94.658 Y-77.771 Z-4.081
X-94.669 Y-77.753 Z-4.173
X-94.688 Y-77.722 Z-4.26
X-94.714 Y-77.68 Z-4.34
X-94.746 Y-77.628 Z-4.412
X-94.784 Y-77.568 Z-4.473
X-94.827 Y-77.499 Z-4.522
X-94.873 Y-77.425 Z-4.558
X-94.921 Y-77.348 Z-4.58
X-94.97 Y-77.268 Z-4.588
G3 X-95.537 Y-76.725 I-1.344 J-0.835
G1 X-95.629 Y-76.677
X-96.143 Y-76.403
X-96.944 Y-76.024
X-97.742 Y-75.639
X-98.486 Y-75.158
X-99.141 Y-74.561
X-99.689 Y-73.864
X-100.03 Y-73.261
X-100.115 Y-73.121
X-100.208 Y-72.985
X-100.309 Y-72.855
G3 X-101.187 Y-72.831 I-0.45 J-0.397
X-101.148 Y-73.708 I0.428 J-0.421
G1 X-96.833 Y-77.379
G3 X-95.954 Y-77.268 I0.389 J0.457
X-96.143 Y-76.403 I-0.49 J0.346
G1 X-96.837 Y-76.031
X-97.039 Y-75.911
X-97.24 Y-75.785
X-97.409 Y-75.672
X-97.441 Y-75.647
X-98.156 Y-75.123
X-98.815 Y-74.531
X-98.833 Y-74.51
X-98.852 Y-74.491
X-98.873 Y-74.474
G3 X-99.617 Y-75.414 I-0.364 J-0.477
G1 X-98.216 Y-76.563
G3 X-97.441 Y-75.647 I0.38 J0.464
G1 X-97.658 Y-75.471
X-98.884 Y-74.464
X-99.052 Y-74.318
X-99.111 Y-74.263
X-99.253 Y-74.126
X-99.454 Y-73.896
X-100.639 Y-72.452
X-100.662 Y-72.422
X-100.781 Y-72.251
X-100.904 Y-72.049
X-101.026 Y-71.848
X-101.618 Y-70.739
G3 X-102.294 Y-70.461 I-0.519 J-0.301
G1 X-102.384 Y-70.486 Z-4.58
X-102.473 Y-70.51 Z-4.558
X-102.557 Y-70.532 Z-4.522
X-102.634 Y-70.553 Z-4.473
X-102.703 Y-70.572 Z-4.412
X-102.762 Y-70.588 Z-4.34
X-102.81 Y-70.601 Z-4.26
X-102.845 Y-70.61 Z-4.173
X-102.866 Y-70.616 Z-4.081
X-102.873 Y-70.618 Z-3.987
G0 Z5
X-103.62 Y64.23
Z-3.388
G1 Z-3.987 F2388.4
X-103.616 Y64.236 Z-4.081
X-103.603 Y64.253 Z-4.173
X-103.582 Y64.282 Z-4.26
X-103.552 Y64.322 Z-4.34
X-103.516 Y64.371 Z-4.412
X-103.474 Y64.429 Z-4.473
X-103.426 Y64.494 Z-4.522
X-103.375 Y64.564 Z-4.558
X-103.32 Y64.637 Z-4.58
X-103.265 Y64.713 Z-4.588
G3 X-102.971 Y65.441 I-1.275 J0.938
G1 X-102.835 Y66.817
X-102.793 Y67.219
X-102.768 Y67.506
X-102.752 Y67.75
X-102.734 Y68.091
X-102.716 Y68.649
X-102.703 Y69.535
X-102.698 Y71.307
X-102.684 Y72.193
X-102.617 Y73.076
X-102.439 Y73.944
X-102.109 Y74.767
X-101.631 Y75.513
X-101.021 Y76.156
X-100.306 Y76.679
X-99.514 Y77.076
X-98.672 Y77.354
X-97.804 Y77.529
X-96.923 Y77.623
X-96.038 Y77.669
X-95.152 Y77.688
X-94.266 Y77.696
X-93.379 Y77.699
X-93
X-92.801 Y77.707
X-92.603 Y77.731
X-92.408 Y77.772
X-91.804 Y77.837
X-91.024 Y77.914
G3 X-90.508 Y78.431 I-0.08 J0.595
G1 X-90.496 Y78.524 Z-4.58
X-90.484 Y78.615 Z-4.558
X-90.473 Y78.702 Z-4.522
X-90.463 Y78.781 Z-4.473
X-90.454 Y78.852 Z-4.412
X-90.446 Y78.913 Z-4.34
X-90.439 Y78.962 Z-4.26
X-90.435 Y78.997 Z-4.173
X-90.432 Y79.019 Z-4.081
X-90.431 Y79.026 Z-3.987
G0 Z5
X-103.49 Y66.034
Z-3.388
G1 Z-3.987 F2388.4
X-103.485 Y66.04 Z-4.081
X-103.471 Y66.057 Z-4.173
X-103.449 Y66.085 Z-4.26
X-103.418 Y66.123 Z-4.34
X-103.38 Y66.171 Z-4.412
X-103.335 Y66.227 Z-4.473
X-103.285 Y66.29 Z-4.522
X-103.231 Y66.358 Z-4.558
X-103.174 Y66.429 Z-4.58
X-103.115 Y66.503 Z-4.588
G3 X-102.793 Y67.219 I-1.237 J0.987
G1 X-102.766 Y67.42
X-102.695 Y67.727
X-102.65 Y67.983
X-102.627 Y68.131
X-102.608 Y68.28
X-102.59 Y68.446
X-102.571 Y68.661
X-102.554 Y68.904
X-102.536 Y69.254
X-102.516 Y69.83
X-102.502 Y70.716
X-102.493 Y71.602
X-102.454 Y72.488
X-102.325 Y73.364
X-102.056 Y74.209
X-101.64 Y74.991
X-101.085 Y75.682
X-100.412 Y76.258
X-99.649 Y76.71
X-98.826 Y77.038
X-97.967 Y77.255
X-97.091 Y77.384
X-96.207 Y77.451
X-95.321 Y77.481
X-94.435 Y77.493
X-93.834 Y77.496
X-93.558 Y77.511
X-93.285 Y77.552
X-93.017 Y77.62
X-92.76 Y77.684
X-92.408 Y77.772
G3 X-91.973 Y78.358 I-0.164 J0.577
G1 X-91.974 Y78.452 Z-4.58
X-91.976 Y78.543 Z-4.558
X-91.977 Y78.63 Z-4.522
X-91.978 Y78.711 Z-4.473
X-91.979 Y78.782 Z-4.412
X-91.98 Y78.843 Z-4.34
X-91.981 Y78.893 Z-4.26
X-91.982 Y78.929 Z-4.173
Y78.951 Z-4.081
Y78.958 Z-3.987
G0 Z5
X-103.493 Y66.608
Z-3.388
G1 Z-3.987 F2388.4
X-103.488 Y66.613 Z-4.081
X-103.473 Y66.629 Z-4.173
X-103.448 Y66.655 Z-4.26
X-103.414 Y66.691 Z-4.34
X-103.372 Y66.735 Z-4.412
X-103.323 Y66.787 Z-4.473
X-103.267 Y66.845 Z-4.522
X-103.207 Y66.908 Z-4.558
X-103.144 Y66.974 Z-4.58
X-103.079 Y67.042 Z-4.588
G3 X-102.695 Y67.727 I-1.145 J1.092
G1 X-102.673 Y67.823
X-102.617 Y68.024
X-102.569 Y68.185
X-102.527 Y68.351
X-102.493 Y68.497
X-102.466 Y68.644
X-102.443 Y68.793
X-102.423 Y68.944
X-102.404 Y69.107
X-102.385 Y69.306
X-102.364 Y69.578
X-102.342 Y69.955
X-102.305 Y70.84
X-102.283 Y71.726
X-102.214 Y72.61
X-102.033 Y73.477
X-101.706 Y74.301
X-101.234 Y75.051
X-100.631 Y75.7
X-99.921 Y76.23
X-99.133 Y76.635
X-98.294 Y76.922
X-97.428 Y77.107
X-96.548 Y77.213
X-95.663 Y77.264
X-94.777 Y77.286
X-94.49 Y77.29
X-94.222 Y77.306
X-93.957 Y77.347
X-93.697 Y77.413
X-93.017 Y77.62
G3 X-92.612 Y78.228 I-0.194 J0.568
G1 X-92.619 Y78.321 Z-4.58
X-92.625 Y78.413 Z-4.558
X-92.631 Y78.5 Z-4.522
X-92.636 Y78.58 Z-4.473
X-92.641 Y78.651 Z-4.412
X-92.645 Y78.712 Z-4.34
X-92.649 Y78.761 Z-4.26
X-92.651 Y78.797 Z-4.173
X-92.652 Y78.819 Z-4.081
X-92.653 Y78.826 Z-3.987
G0 Z5
X-103.442 Y67.123
Z-3.388
G1 Z-3.987 F2388.4
X-103.437 Y67.128 Z-4.081
X-103.421 Y67.143 Z-4.173
X-103.394 Y67.167 Z-4.26
X-103.358 Y67.201 Z-4.34
X-103.313 Y67.242 Z-4.412
X-103.26 Y67.29 Z-4.473
X-103.2 Y67.344 Z-4.522
X-103.136 Y67.403 Z-4.558
X-103.068 Y67.465 Z-4.58
X-102.999 Y67.528 Z-4.588
G3 X-102.569 Y68.185 I-1.067 J1.169
G1 X-102.385 Y68.788
X-102.34 Y68.969
X-102.307 Y69.115
X-102.279 Y69.262
X-102.255 Y69.41
X-102.233 Y69.564
X-102.209 Y69.766
X-102.184 Y70.013
X-102.16 Y70.301
X-102.102 Y71.185
X-102.051 Y72.069
X-101.912 Y72.945
X-101.637 Y73.787
X-101.218 Y74.568
X-100.662 Y75.258
X-99.99 Y75.835
X-99.228 Y76.287
X-98.406 Y76.618
X-97.548 Y76.84
X-96.672 Y76.975
X-95.789 Y77.046
X-95.147 Y77.07
X-94.894 Y77.091
X-94.644 Y77.134
X-94.398 Y77.199
X-94.22 Y77.255
X-93.697 Y77.413
G3 X-93.293 Y78.021 I-0.194 J0.568
G1 X-93.299 Y78.115 Z-4.58
X-93.305 Y78.206 Z-4.558
X-93.311 Y78.293 Z-4.522
X-93.317 Y78.373 Z-4.473
X-93.321 Y78.445 Z-4.412
X-93.326 Y78.506 Z-4.34
X-93.329 Y78.555 Z-4.26
X-93.331 Y78.591 Z-4.173
X-93.333 Y78.613 Z-4.081
Y78.62 Z-3.987
G0 Z5
X-103.259 Y67.727
Z-3.388
G1 Z-3.987 F2388.4
X-103.254 Y67.732 Z-4.081
X-103.237 Y67.747 Z-4.173
X-103.211 Y67.771 Z-4.26
X-103.175 Y67.804 Z-4.34
X-103.129 Y67.846 Z-4.412
X-103.076 Y67.894 Z-4.473
X-103.017 Y67.948 Z-4.522
X-102.953 Y68.007 Z-4.558
X-102.885 Y68.068 Z-4.58
X-102.816 Y68.132 Z-4.588
G3 X-102.385 Y68.788 I-1.067 J1.169
G1 X-102.251 Y69.232
X-102.2 Y69.392
X-102.153 Y69.574
X-102.118 Y69.719
X-102.088 Y69.866
X-102.062 Y70.014
X-102.035 Y70.188
X-102.006 Y70.404
X-101.973 Y70.684
X-101.885 Y71.566
X-101.774 Y72.445
X-101.541 Y73.3
X-101.169 Y74.104
X-100.657 Y74.827
X-100.02 Y75.444
X-99.285 Y75.939
X-98.481 Y76.31
X-97.633 Y76.568
X-96.762 Y76.731
X-95.881 Y76.823
X-95.803 Y76.829
X-95.539 Y76.859
X-95.279 Y76.912
X-95.025 Y76.989
X-94.824 Y77.059
X-94.398 Y77.199
G3 X-93.999 Y77.811 I-0.199 J0.566
G1 X-94.006 Y77.904 Z-4.58
X-94.013 Y77.996 Z-4.558
X-94.02 Y78.082 Z-4.522
X-94.026 Y78.162 Z-4.473
X-94.031 Y78.234 Z-4.412
X-94.036 Y78.295 Z-4.34
X-94.04 Y78.344 Z-4.26
X-94.043 Y78.38 Z-4.173
X-94.044 Y78.402 Z-4.081
X-94.045 Y78.409 Z-3.987
G0 Z5
X-103.086 Y68.341
Z-3.388
G1 Z-3.987 F2388.4
X-103.08 Y68.346 Z-4.081
X-103.064 Y68.36 Z-4.173
X-103.037 Y68.384 Z-4.26
X-103 Y68.417 Z-4.34
X-102.955 Y68.458 Z-4.412
X-102.901 Y68.506 Z-4.473
X-102.842 Y68.559 Z-4.522
X-102.777 Y68.617 Z-4.558
X-102.708 Y68.678 Z-4.58
X-102.638 Y68.74 Z-4.588
G3 X-102.2 Y69.392 I-1.054 J1.181
G1 X-102.058 Y69.836
X-102.044 Y69.869
X-101.995 Y70.011
X-101.952 Y70.155
X-101.916 Y70.3
X-101.884 Y70.447
X-101.853 Y70.605
X-101.796 Y70.931
X-101.658 Y71.806
X-101.48 Y72.674
X-101.172 Y73.505
X-100.724 Y74.27
X-100.145 Y74.94
X-99.455 Y75.496
X-98.682 Y75.93
X-97.853 Y76.244
X-96.993 Y76.454
X-96.158 Y76.578
X-95.851 Y76.641
X-95.553 Y76.737
X-95.267 Y76.864
X-95.025 Y76.989
G3 X-94.737 Y77.66 I-0.293 J0.524
G1 X-94.76 Y77.751 Z-4.58
X-94.782 Y77.839 Z-4.558
X-94.803 Y77.924 Z-4.522
X-94.823 Y78.001 Z-4.473
X-94.841 Y78.071 Z-4.412
X-94.856 Y78.13 Z-4.34
X-94.868 Y78.178 Z-4.26
X-94.877 Y78.213 Z-4.173
X-94.882 Y78.234 Z-4.081
X-94.884 Y78.241 Z-3.987
G0 Z5
X-103.007 Y68.888
Z-3.388
G1 Z-3.987 F2388.4
X-103.002 Y68.893 Z-4.081
X-102.984 Y68.906 Z-4.173
X-102.955 Y68.928 Z-4.26
X-102.916 Y68.958 Z-4.34
X-102.868 Y68.995 Z-4.412
X-102.811 Y69.038 Z-4.473
X-102.747 Y69.087 Z-4.522
X-102.678 Y69.14 Z-4.558
X-102.605 Y69.195 Z-4.58
X-102.531 Y69.252 Z-4.588
G3 X-102.044 Y69.869 I-0.961 J1.258
G1 X-101.977 Y70.037
X-101.925 Y70.14
X-101.865 Y70.277
X-101.811 Y70.417
X-101.764 Y70.56
X-101.723 Y70.704
X-101.685 Y70.849
X-101.576 Y71.302
X-101.383 Y72.166
X-101.108 Y73.009
X-100.704 Y73.797
X-100.167 Y74.502
X-99.513 Y75.1
X-98.767 Y75.578
X-97.956 Y75.935
X-97.105 Y76.183
X-96.583 Y76.288
X-96.33 Y76.356
X-96.085 Y76.447
X-95.849 Y76.559
G3 X-95.571 Y77.235 I-0.301 J0.519
G1 X-95.596 Y77.326 Z-4.58
X-95.619 Y77.414 Z-4.558
X-95.642 Y77.498 Z-4.522
X-95.663 Y77.575 Z-4.473
X-95.682 Y77.645 Z-4.412
X-95.698 Y77.704 Z-4.34
X-95.711 Y77.751 Z-4.26
X-95.72 Y77.786 Z-4.173
X-95.726 Y77.807 Z-4.081
X-95.728 Y77.814 Z-3.987
G0 Z5
X-102.966 Y69.242
Z-3.388
G1 Z-3.987 F2388.4
X-102.96 Y69.246 Z-4.081
X-102.941 Y69.258 Z-4.173
X-102.911 Y69.277 Z-4.26
X-102.869 Y69.304 Z-4.34
X-102.818 Y69.337 Z-4.412
X-102.758 Y69.376 Z-4.473
X-102.69 Y69.419 Z-4.522
X-102.617 Y69.466 Z-4.558
X-102.54 Y69.515 Z-4.58
X-102.461 Y69.566 Z-4.588
G3 X-101.925 Y70.14 I-0.853 J1.333
G1 X-101.775 Y70.439
X-101.744 Y70.5
X-101.674 Y70.654
X-101.614 Y70.791
X-101.56 Y70.931
X-101.511 Y71.073
X-101.239 Y71.917
X-100.951 Y72.755
X-100.548 Y73.543
X-100.016 Y74.252
X-99.367 Y74.856
X-98.627 Y75.343
X-97.82 Y75.709
X-97.178 Y75.908
X-97.006 Y75.967
X-96.839 Y76.037
X-96.676 Y76.118
G3 X-96.398 Y76.793 I-0.301 J0.519
G1 X-96.422 Y76.884 Z-4.58
X-96.446 Y76.972 Z-4.558
X-96.469 Y77.056 Z-4.522
X-96.49 Y77.134 Z-4.473
X-96.508 Y77.203 Z-4.412
X-96.524 Y77.262 Z-4.34
X-96.537 Y77.309 Z-4.26
X-96.546 Y77.344 Z-4.173
X-96.552 Y77.365 Z-4.081
X-96.554 Y77.372 Z-3.987
G0 Z5
X-102.796 Y69.615
Z-3.388
G1 Z-3.987 F2388.4
X-102.789 Y69.619 Z-4.081
X-102.771 Y69.631 Z-4.173
X-102.74 Y69.65 Z-4.26
X-102.698 Y69.676 Z-4.34
X-102.646 Y69.708 Z-4.412
X-102.586 Y69.746 Z-4.473
X-102.518 Y69.788 Z-4.522
X-102.444 Y69.834 Z-4.558
X-102.366 Y69.883 Z-4.58
X-102.286 Y69.932 Z-4.588
G3 X-101.744 Y70.5 I-0.837 J1.343
G1 X-101.669 Y70.644
X-101.468 Y71.021
X-101.32 Y71.333
X-101.253 Y71.484
X-100.904 Y72.298
X-100.52 Y73.097
X-100.018 Y73.827
X-99.402 Y74.464
X-98.687 Y74.988
X-97.9 Y75.394
X-97.861 Y75.41
X-97.702 Y75.483
X-97.551 Y75.57
X-97.409 Y75.672
G3 X-97.339 Y76.558 I-0.367 J0.475
X-98.228 Y76.541 I-0.437 J-0.411
G1 X-102.439 Y71.716
G3 X-102.336 Y70.834 I0.452 J-0.395
X-101.468 Y71.021 I0.349 J0.488
G1 X-101.026 Y71.848
X-100.864 Y72.115
X-100.441 Y72.894
X-99.903 Y73.599
X-99.279 Y74.227
X-98.565 Y74.753
X-98.493 Y74.797
X-98.423 Y74.845
X-98.356 Y74.897
G3 X-98.326 Y75.77 I-0.397 J0.45
X-99.199 Y75.749 I-0.427 J-0.422
G1 X-101.811 Y72.847
G3 X-101.732 Y71.971 I0.446 J-0.401
X-100.864 Y72.115 I0.367 J0.475
G1 X-100.781 Y72.251
X-100.662 Y72.422
X-100.639 Y72.452
X-99.454 Y73.896
X-99.253 Y74.126
X-99.111 Y74.263
X-99.052 Y74.318
X-98.884 Y74.464
X-97.643 Y75.483
X-97.409 Y75.672
X-97.24 Y75.785
X-97.039 Y75.911
X-96.837 Y76.031
X-95.627 Y76.678
X-95.267 Y76.864
G3 X-94.978 Y77.535 I-0.293 J0.524
G1 X-95.001 Y77.626 Z-4.58
X-95.023 Y77.715 Z-4.558
X-95.045 Y77.799 Z-4.522
X-95.065 Y77.877 Z-4.473
X-95.082 Y77.947 Z-4.412
X-95.097 Y78.006 Z-4.34
X-95.109 Y78.054 Z-4.26
X-95.118 Y78.089 Z-4.173
X-95.123 Y78.11 Z-4.081
X-95.125 Y78.117 Z-3.987
G0 Z5
X89.234 Y78.598
Z-3.388
G1 Z-3.987 F2388.4
X89.24 Y78.594 Z-4.081
X89.258 Y78.581 Z-4.173
X89.288 Y78.56 Z-4.26
X89.328 Y78.532 Z-4.34
X89.377 Y78.496 Z-4.412
X89.436 Y78.455 Z-4.473
X89.501 Y78.408 Z-4.522
X89.572 Y78.358 Z-4.558
X89.647 Y78.304 Z-4.58
X89.723 Y78.25 Z-4.588
G3 X90.456 Y77.967 I0.918 J1.289
G1 X90.596 Y77.956
X91.804 Y77.837
X92.207 Y77.793
X93.091 Y77.742
X93.527 Y77.724
X94.332 Y77.706
X95.218 Y77.701
X96.104 Y77.7
X96.99 Y77.696
X97.875 Y77.649
X98.748 Y77.501
X99.585 Y77.209
X100.352 Y76.765
X101.021 Y76.184
X101.572 Y75.49
X101.996 Y74.712
X102.299 Y73.879
X102.491 Y73.014
X102.601 Y72.135
X102.657 Y71.251
X102.683 Y70.365
X102.694 Y69.479
X102.698 Y68.593
X102.699 Y68.007
X102.706 Y67.81
X102.729 Y67.614
X102.766 Y67.42
X102.793 Y67.219
X102.855 Y66.615
X102.914 Y66.024
G3 X103.431 Y65.508 I0.595 J0.08
G1 X103.524 Y65.496 Z-4.58
X103.615 Y65.484 Z-4.558
X103.702 Y65.473 Z-4.522
X103.781 Y65.463 Z-4.473
X103.852 Y65.454 Z-4.412
X103.913 Y65.446 Z-4.34
X103.962 Y65.44 Z-4.26
X103.997 Y65.435 Z-4.173
X104.019 Y65.432 Z-4.081
X104.026 Y65.431 Z-3.987
G0 Z5
X91.001 Y78.454
Z-3.388
G1 Z-3.987 F2388.4
X91.007 Y78.45 Z-4.081
X91.025 Y78.437 Z-4.173
X91.054 Y78.415 Z-4.26
X91.093 Y78.386 Z-4.34
X91.142 Y78.349 Z-4.412
X91.199 Y78.306 Z-4.473
X91.263 Y78.258 Z-4.522
X91.333 Y78.206 Z-4.558
X91.406 Y78.151 Z-4.58
X91.481 Y78.094 Z-4.588
G3 X92.207 Y77.793 I0.95 J1.266
G1 X92.408 Y77.772
X92.655 Y77.71
X92.86 Y77.67
X93.007 Y77.644
X93.156 Y77.623
X93.311 Y77.605
X93.502 Y77.585
X93.705 Y77.568
X93.985 Y77.55
X94.39 Y77.531
X95.042 Y77.512
X95.928 Y77.502
X96.814 Y77.494
X97.699 Y77.439
X98.571 Y77.282
X99.405 Y76.982
X100.167 Y76.531
X100.831 Y75.944
X101.378 Y75.247
X101.8 Y74.468
X102.1 Y73.634
X102.291 Y72.769
X102.4 Y71.889
X102.456 Y71.005
X102.482 Y70.119
X102.493 Y69.233
X102.495 Y68.833
X102.51 Y68.56
X102.551 Y68.29
X102.617 Y68.024
X102.676 Y67.813
X102.766 Y67.42
G3 X103.344 Y66.975 I0.58 J0.154
G1 X103.438 Z-4.58
X103.53 Y66.974 Z-4.558
X103.617 Z-4.522
X103.697 Z-4.473
X103.769 Z-4.412
X103.83 Z-4.34
X103.879 Z-4.26
X103.915 Z-4.173
X103.937 Z-4.081
X103.944 Z-3.987
G0 Z5
X91.55 Y78.528
Z-3.388
G1 Z-3.987 F2388.4
X91.555 Y78.523 Z-4.081
X91.571 Y78.507 Z-4.173
X91.596 Y78.482 Z-4.26
X91.631 Y78.448 Z-4.34
X91.675 Y78.405 Z-4.412
X91.726 Y78.354 Z-4.473
X91.783 Y78.298 Z-4.522
X91.845 Y78.237 Z-4.558
X91.91 Y78.172 Z-4.58
X91.977 Y78.106 Z-4.588
G3 X92.655 Y77.71 I1.112 J1.126
G1 X93.012 Y77.621
X93.173 Y77.572
X93.35 Y77.528
X93.496 Y77.494
X93.643 Y77.467
X93.792 Y77.443
X93.94 Y77.424
X94.127 Y77.403
X94.323 Y77.384
X94.576 Y77.365
X94.944 Y77.343
X95.524 Y77.32
X96.41 Y77.3
X97.295 Y77.259
X98.17 Y77.122
X99.014 Y76.851
X99.795 Y76.433
X100.484 Y75.875
X101.059 Y75.201
X101.509 Y74.438
X101.833 Y73.613
X102.048 Y72.753
X102.175 Y71.877
X102.244 Y70.993
X102.277 Y70.108
X102.287 Y69.494
X102.303 Y69.229
X102.344 Y68.966
X102.41 Y68.708
X102.617 Y68.024
G3 X103.226 Y67.62 I0.568 J0.194
G1 X103.319 Y67.626 Z-4.58
X103.411 Y67.632 Z-4.558
X103.497 Y67.638 Z-4.522
X103.577 Y67.644 Z-4.473
X103.649 Y67.648 Z-4.412
X103.71 Y67.653 Z-4.34
X103.759 Y67.656 Z-4.26
X103.795 Y67.658 Z-4.173
X103.817 Y67.66 Z-4.081
X103.824 Z-3.987
G0 Z5
X92.111 Y78.446
Z-3.388
G1 Z-3.987 F2388.4
X92.116 Y78.441 Z-4.081
X92.131 Y78.424 Z-4.173
X92.155 Y78.398 Z-4.26
X92.189 Y78.361 Z-4.34
X92.23 Y78.316 Z-4.412
X92.278 Y78.263 Z-4.473
X92.332 Y78.204 Z-4.522
X92.391 Y78.14 Z-4.558
X92.453 Y78.072 Z-4.58
X92.516 Y78.003 Z-4.588
G3 X93.173 Y77.572 I1.169 J1.067
G1 X93.777 Y77.389
X93.969 Y77.341
X94.115 Y77.307
X94.262 Y77.279
X94.41 Y77.255
X94.564 Y77.234
X94.742 Y77.213
X94.943 Y77.193
X95.22 Y77.17
X96.002 Y77.119
X96.887 Y77.078
X97.766 Y76.96
X98.618 Y76.718
X99.416 Y76.332
X100.128 Y75.804
X100.73 Y75.155
X101.209 Y74.409
X101.561 Y73.596
X101.799 Y72.742
X101.947 Y71.868
X102.029 Y70.986
X102.069 Y70.128
X102.091 Y69.881
X102.134 Y69.637
X102.199 Y69.397
X102.251 Y69.232
X102.41 Y68.708
G3 X103.018 Y68.304 I0.568 J0.194
G1 X103.112 Y68.31 Z-4.58
X103.203 Y68.316 Z-4.558
X103.29 Y68.322 Z-4.522
X103.37 Y68.327 Z-4.473
X103.441 Y68.332 Z-4.412
X103.502 Y68.336 Z-4.34
X103.552 Y68.34 Z-4.26
X103.587 Y68.342 Z-4.173
X103.609 Y68.344 Z-4.081
X103.617 Z-3.987
G0 Z5
X92.715 Y78.263
Z-3.388
G1 Z-3.987 F2388.4
X92.72 Y78.257 Z-4.081
X92.735 Y78.241 Z-4.173
X92.759 Y78.214 Z-4.26
X92.793 Y78.178 Z-4.34
X92.834 Y78.133 Z-4.412
X92.882 Y78.08 Z-4.473
X92.936 Y78.021 Z-4.522
X92.995 Y77.957 Z-4.558
X93.056 Y77.889 Z-4.58
X93.12 Y77.82 Z-4.588
G3 X93.777 Y77.389 I1.169 J1.067
G1 X94.22 Y77.255
X94.381 Y77.204
X94.572 Y77.155
X94.718 Y77.12
X94.865 Y77.09
X95.013 Y77.065
X95.182 Y77.039
X95.361 Y77.015
X95.601 Y76.988
X96.483 Y76.902
X97.363 Y76.798
X98.222 Y76.581
X99.034 Y76.225
X99.767 Y75.728
X100.396 Y75.103
X100.902 Y74.376
X101.283 Y73.576
X101.547 Y72.73
X101.715 Y71.86
X101.812 Y70.979
X101.825 Y70.784
X101.862 Y70.489
X101.928 Y70.199
X102.025 Y69.917
X102.058 Y69.836
X102.199 Y69.397
G3 X102.812 Y68.999 I0.565 J0.201
G1 X102.905 Y69.007 Z-4.58
X102.996 Y69.014 Z-4.558
X103.083 Y69.021 Z-4.522
X103.163 Y69.027 Z-4.473
X103.235 Y69.033 Z-4.412
X103.296 Y69.038 Z-4.34
X103.345 Y69.042 Z-4.26
X103.38 Y69.044 Z-4.173
X103.402 Y69.046 Z-4.081
X103.41 Y69.047 Z-3.987
G0 Z5
X93.327 Y78.087
Z-3.388
G1 Z-3.987 F2388.4
X93.332 Y78.082 Z-4.081
X93.347 Y78.066 Z-4.173
X93.371 Y78.039 Z-4.26
X93.404 Y78.002 Z-4.34
X93.444 Y77.957 Z-4.412
X93.492 Y77.903 Z-4.473
X93.546 Y77.844 Z-4.522
X93.604 Y77.779 Z-4.558
X93.665 Y77.711 Z-4.58
X93.728 Y77.641 Z-4.588
G3 X94.381 Y77.204 I1.178 J1.056
G1 X94.623 Y77.125
X94.824 Y77.059
X94.885 Y77.038
X95.074 Y76.982
X95.218 Y76.942
X95.364 Y76.908
X95.511 Y76.878
X95.731 Y76.837
X96.101 Y76.776
X96.978 Y76.647
X97.84 Y76.443
X98.662 Y76.111
X99.413 Y75.641
X100.064 Y75.04
X100.597 Y74.332
X101.004 Y73.544
X101.292 Y72.706
X101.48 Y71.841
X101.568 Y71.19
X101.575 Y71.147
X101.636 Y70.855
X101.726 Y70.571
X101.846 Y70.298
X101.977 Y70.037
X102.025 Y69.917
G3 X102.666 Y69.568 I0.549 J0.243
G1 X102.759 Y69.582 Z-4.58
X102.849 Y69.596 Z-4.558
X102.935 Y69.61 Z-4.522
X103.015 Y69.622 Z-4.473
X103.085 Y69.633 Z-4.412
X103.146 Y69.643 Z-4.34
X103.194 Y69.65 Z-4.26
X103.23 Y69.656 Z-4.173
X103.252 Y69.659 Z-4.081
X103.259 Y69.66 Z-3.987
G0 Z5
X93.862 Y77.956
Z-3.388
G1 Z-3.987 F2388.4
X93.867 Y77.95 Z-4.081
X93.881 Y77.933 Z-4.173
X93.904 Y77.906 Z-4.26
X93.935 Y77.868 Z-4.34
X93.975 Y77.821 Z-4.412
X94.021 Y77.766 Z-4.473
X94.072 Y77.705 Z-4.522
X94.128 Y77.638 Z-4.558
X94.187 Y77.568 Z-4.58
X94.247 Y77.496 Z-4.588
G3 X94.885 Y77.038 I1.213 J1.016
G1 X95.025 Y76.989
X95.129 Y76.935
X95.265 Y76.874
X95.405 Y76.82
X95.548 Y76.773
X95.692 Y76.732
X95.838 Y76.695
X96.7 Y76.492
X97.561 Y76.28
X98.384 Y75.953
X99.14 Y75.491
X99.799 Y74.899
X100.343 Y74.199
X100.763 Y73.419
X101.063 Y72.585
X101.264 Y71.722
X101.282 Y71.631
X101.35 Y71.358
X101.445 Y71.092
X101.566 Y70.837
G3 X102.241 Y70.559 I0.519 J0.301
G1 X102.332 Y70.584 Z-4.58
X102.42 Y70.608 Z-4.558
X102.504 Y70.63 Z-4.522
X102.582 Y70.651 Z-4.473
X102.651 Y70.67 Z-4.412
X102.71 Y70.686 Z-4.34
X102.757 Y70.699 Z-4.26
X102.792 Y70.708 Z-4.173
X102.813 Y70.714 Z-4.081
X102.821 Y70.716 Z-3.987
G0 Z5
X94.241 Y77.985
Z-3.388
G1 Z-3.987 F2388.4
X94.245 Y77.979 Z-4.081
X94.257 Y77.961 Z-4.173
X94.276 Y77.93 Z-4.26
X94.302 Y77.888 Z-4.34
X94.335 Y77.836 Z-4.412
X94.373 Y77.776 Z-4.473
X94.415 Y77.708 Z-4.522
X94.461 Y77.634 Z-4.558
X94.51 Y77.556 Z-4.58
X94.56 Y77.477 Z-4.588
G3 X95.129 Y76.935 I1.341 J0.84
G1 X95.488 Y76.75
X95.625 Y76.688
X95.762 Y76.629
X95.903 Y76.575
X96.048 Y76.524
X96.24 Y76.461
X97.086 Y76.197
X97.919 Y75.894
X98.695 Y75.466
X99.385 Y74.911
X99.967 Y74.242
X100.427 Y73.485
X100.767 Y72.667
X100.906 Y72.197
X100.968 Y72.012
X101.041 Y71.833
X101.127 Y71.658
G3 X101.803 Y71.38 I0.519 J0.301
G1 X101.893 Y71.404 Z-4.58
X101.982 Y71.428 Z-4.558
X102.066 Y71.451 Z-4.522
X102.143 Y71.472 Z-4.473
X102.212 Y71.491 Z-4.412
X102.271 Y71.507 Z-4.34
X102.319 Y71.519 Z-4.26
X102.354 Y71.529 Z-4.173
X102.375 Y71.535 Z-4.081
X102.382 Y71.537 Z-3.987
G0 Z5
X94.604 Y77.803
Z-3.388
G1 Z-3.987 F2388.4
X94.608 Y77.797 Z-4.081
X94.62 Y77.778 Z-4.173
X94.639 Y77.748 Z-4.26
X94.665 Y77.706 Z-4.34
X94.697 Y77.654 Z-4.412
X94.735 Y77.593 Z-4.473
X94.777 Y77.525 Z-4.522
X94.823 Y77.451 Z-4.558
X94.872 Y77.373 Z-4.58
X94.921 Y77.294 Z-4.588
G3 X95.488 Y76.75 I1.344 J0.835
G1 X95.629 Y76.677
X96.004 Y76.477
X96.236 Y76.367
X96.399 Y76.294
X96.68 Y76.173
X97.501 Y75.839
X98.285 Y75.426
X98.995 Y74.896
X99.605 Y74.253
X100.098 Y73.517
X100.417 Y72.844
X100.491 Y72.699
X100.573 Y72.558
X100.662 Y72.422
G3 X101.551 Y72.341 I0.48 J0.36
X101.537 Y73.233 I-0.408 J0.44
G1 X96.699 Y77.448
G3 X95.817 Y77.345 I-0.394 J-0.452
X96.004 Y76.477 I0.488 J-0.349
G1 X96.837 Y76.031
X97.039 Y75.911
X97.811 Y75.478
X98.533 Y74.964
X99.172 Y74.35
X99.708 Y73.644
X99.791 Y73.511
X99.876 Y73.388
X99.968 Y73.27
G3 X100.84 Y73.24 I0.45 J0.397
X100.82 Y74.113 I-0.422 J0.427
G1 X97.777 Y76.853
G3 X96.903 Y76.778 I-0.402 J-0.446
X97.039 Y75.911 I0.472 J-0.37
G1 X97.24 Y75.785
X97.409 Y75.672
X97.658 Y75.471
X98.884 Y74.464
X99.052 Y74.318
X99.111 Y74.263
X99.253 Y74.126
X99.454 Y73.896
X100.639 Y72.452
X100.662 Y72.422
X100.781 Y72.251
X101.001 Y71.889
X101.026 Y71.848
X101.671 Y70.641
X101.775 Y70.439
X101.846 Y70.298
G3 X102.514 Y70.003 I0.527 J0.287
G1 X102.605 Y70.025 Z-4.58
X102.694 Y70.046 Z-4.558
X102.779 Y70.067 Z-4.522
X102.857 Y70.086 Z-4.473
X102.926 Y70.103 Z-4.412
X102.986 Y70.117 Z-4.34
X103.033 Y70.129 Z-4.26
X103.068 Y70.137 Z-4.173
X103.09 Y70.142 Z-4.081
X103.097 Y70.144 Z-3.987
G0 Z5
X103.62 Y-64.23
Z-3.388
G1 Z-3.987 F2388.4
X103.616 Y-64.236 Z-4.081
X103.603 Y-64.253 Z-4.173
X103.582 Y-64.282 Z-4.26
X103.552 Y-64.322 Z-4.34
X103.516 Y-64.371 Z-4.412
X103.474 Y-64.429 Z-4.473
X103.426 Y-64.494 Z-4.522
X103.375 Y-64.564 Z-4.558
X103.32 Y-64.637 Z-4.58
X103.265 Y-64.713 Z-4.588
G3 X102.971 Y-65.441 I1.275 J-0.938
G1 X102.835 Y-66.817
X102.793 Y-67.219
X102.768 Y-67.506
X102.752 Y-67.75
X102.734 Y-68.092
X102.716 Y-68.649
X102.703 Y-69.535
X102.698 Y-71.307
X102.683 Y-72.193
X102.617 Y-73.077
X102.438 Y-73.945
X102.109 Y-74.767
X101.631 Y-75.513
X101.021 Y-76.156
X100.305 Y-76.678
X99.513 Y-77.075
X98.671 Y-77.353
X97.803 Y-77.529
X96.922 Y-77.624
X96.037 Y-77.669
X95.151 Y-77.689
X94.265 Y-77.696
X93.379 Y-77.699
X93
X92.801 Y-77.707
X92.603 Y-77.731
X92.408 Y-77.772
X91.804 Y-77.837
X91.023 Y-77.914
G3 X90.508 Y-78.431 I0.08 J-0.595
G1 X90.496 Y-78.524 Z-4.58
X90.484 Y-78.615 Z-4.558
X90.473 Y-78.702 Z-4.522
X90.463 Y-78.781 Z-4.473
X90.454 Y-78.852 Z-4.412
X90.446 Y-78.913 Z-4.34
X90.439 Y-78.962 Z-4.26
X90.435 Y-78.997 Z-4.173
X90.432 Y-79.019 Z-4.081
X90.431 Y-79.026 Z-3.987
G0 Z5
X103.49 Y-66.034
Z-3.388
G1 Z-3.987 F2388.4
X103.485 Y-66.04 Z-4.081
X103.471 Y-66.057 Z-4.173
X103.449 Y-66.085 Z-4.26
X103.418 Y-66.123 Z-4.34
X103.38 Y-66.171 Z-4.412
X103.335 Y-66.227 Z-4.473
X103.285 Y-66.29 Z-4.522
X103.231 Y-66.358 Z-4.558
X103.174 Y-66.429 Z-4.58
X103.115 Y-66.503 Z-4.588
G3 X102.793 Y-67.219 I1.237 J-0.987
G1 X102.766 Y-67.42
X102.695 Y-67.727
X102.65 Y-67.983
X102.627 Y-68.131
X102.608 Y-68.28
X102.59 Y-68.446
X102.571 Y-68.661
X102.554 Y-68.904
X102.536 Y-69.255
X102.516 Y-69.84
X102.502 Y-70.727
X102.492 Y-71.613
X102.453 Y-72.498
X102.322 Y-73.374
X102.053 Y-74.218
X101.635 Y-75
X101.078 Y-75.689
X100.403 Y-76.264
X99.64 Y-76.713
X98.816 Y-77.04
X97.957 Y-77.257
X97.08 Y-77.385
X96.196 Y-77.452
X95.311 Y-77.481
X94.425 Y-77.493
X93.835 Y-77.496
X93.558 Y-77.511
X93.285 Y-77.552
X93.016 Y-77.62
X92.76 Y-77.684
X92.408 Y-77.772
G3 X91.973 Y-78.358 I0.164 J-0.577
G1 X91.974 Y-78.452 Z-4.58
X91.976 Y-78.543 Z-4.558
X91.977 Y-78.63 Z-4.522
X91.978 Y-78.711 Z-4.473
X91.979 Y-78.782 Z-4.412
X91.98 Y-78.843 Z-4.34
X91.981 Y-78.893 Z-4.26
X91.982 Y-78.929 Z-4.173
Y-78.951 Z-4.081
Y-78.958 Z-3.987
G0 Z5
X103.493 Y-66.608
Z-3.388
G1 Z-3.987 F2388.4
X103.488 Y-66.613 Z-4.081
X103.473 Y-66.629 Z-4.173
X103.448 Y-66.655 Z-4.26
X103.414 Y-66.691 Z-4.34
X103.372 Y-66.735 Z-4.412
X103.323 Y-66.787 Z-4.473
X103.267 Y-66.845 Z-4.522
X103.207 Y-66.908 Z-4.558
X103.144 Y-66.974 Z-4.58
X103.079 Y-67.042 Z-4.588
G3 X102.695 Y-67.727 I1.145 J-1.092
G1 X102.673 Y-67.823
X102.617 Y-68.024
X102.569 Y-68.185
X102.527 Y-68.351
X102.493 Y-68.497
X102.466 Y-68.644
X102.443 Y-68.793
X102.423 Y-68.944
X102.404 Y-69.109
X102.385 Y-69.307
X102.364 Y-69.579
X102.341 Y-69.96
X102.305 Y-70.845
X102.282 Y-71.731
X102.213 Y-72.614
X102.031 Y-73.482
X101.704 Y-74.305
X101.231 Y-75.054
X100.627 Y-75.703
X99.916 Y-76.232
X99.128 Y-76.637
X98.29 Y-76.923
X97.423 Y-77.108
X96.543 Y-77.213
X95.658 Y-77.264
X94.773 Y-77.286
X94.489 Y-77.29
X94.221 Y-77.306
X93.956 Y-77.348
X93.696 Y-77.413
X93.016 Y-77.62
G3 X92.612 Y-78.228 I0.194 J-0.568
G1 X92.618 Y-78.322 Z-4.58
X92.624 Y-78.413 Z-4.558
X92.63 Y-78.5 Z-4.522
X92.636 Y-78.58 Z-4.473
X92.641 Y-78.651 Z-4.412
X92.645 Y-78.712 Z-4.34
X92.648 Y-78.761 Z-4.26
X92.65 Y-78.797 Z-4.173
X92.652 Y-78.819 Z-4.081
Y-78.827 Z-3.987
G0 Z5
X103.442 Y-67.123
Z-3.388
G1 Z-3.987 F2388.4
X103.437 Y-67.128 Z-4.081
X103.421 Y-67.143 Z-4.173
X103.394 Y-67.167 Z-4.26
X103.358 Y-67.201 Z-4.34
X103.313 Y-67.242 Z-4.412
X103.26 Y-67.29 Z-4.473
X103.2 Y-67.344 Z-4.522
X103.136 Y-67.403 Z-4.558
X103.068 Y-67.465 Z-4.58
X102.999 Y-67.528 Z-4.588
G3 X102.569 Y-68.185 I1.067 J-1.169
G1 X102.385 Y-68.788
X102.34 Y-68.97
X102.307 Y-69.116
X102.278 Y-69.263
X102.254 Y-69.411
X102.233 Y-69.565
X102.209 Y-69.766
X102.184 Y-70.014
X102.16 Y-70.302
X102.101 Y-71.186
X102.05 Y-72.071
X101.911 Y-72.946
X101.637 Y-73.789
X101.217 Y-74.569
X100.661 Y-75.259
X99.988 Y-75.835
X99.226 Y-76.288
X98.404 Y-76.618
X97.546 Y-76.84
X96.67 Y-76.975
X95.787 Y-77.046
X95.147 Y-77.07
X94.893 Y-77.091
X94.643 Y-77.134
X94.397 Y-77.199
X94.22 Y-77.255
X93.696 Y-77.413
G3 X93.292 Y-78.022 I0.194 J-0.568
G1 X93.298 Y-78.115 Z-4.58
X93.304 Y-78.207 Z-4.558
X93.31 Y-78.293 Z-4.522
X93.316 Y-78.374 Z-4.473
X93.32 Y-78.445 Z-4.412
X93.325 Y-78.506 Z-4.34
X93.328 Y-78.555 Z-4.26
X93.33 Y-78.591 Z-4.173
X93.332 Y-78.613 Z-4.081
Y-78.62 Z-3.987
G0 Z5
X103.259 Y-67.727
Z-3.388
G1 Z-3.987 F2388.4
X103.254 Y-67.732 Z-4.081
X103.237 Y-67.747 Z-4.173
X103.211 Y-67.771 Z-4.26
X103.175 Y-67.804 Z-4.34
X103.129 Y-67.846 Z-4.412
X103.076 Y-67.894 Z-4.473
X103.017 Y-67.948 Z-4.522
X102.953 Y-68.007 Z-4.558
X102.885 Y-68.068 Z-4.58
X102.816 Y-68.132 Z-4.588
G3 X102.385 Y-68.788 I1.067 J-1.169
G1 X102.251 Y-69.232
X102.2 Y-69.392
X102.153 Y-69.575
X102.117 Y-69.72
X102.087 Y-69.867
X102.061 Y-70.015
X102.035 Y-70.189
X102.005 Y-70.405
X101.972 Y-70.686
X101.885 Y-71.568
X101.773 Y-72.447
X101.541 Y-73.302
X101.168 Y-74.106
X100.655 Y-74.829
X100.018 Y-75.445
X99.283 Y-75.94
X98.479 Y-76.311
X97.631 Y-76.569
X96.76 Y-76.732
X95.878 Y-76.824
X95.801 Y-76.829
X95.538 Y-76.859
X95.279 Y-76.912
X95.025 Y-76.989
X94.824 Y-77.059
X94.397 Y-77.199
G3 X93.998 Y-77.811 I0.199 J-0.566
G1 X94.005 Y-77.905 Z-4.58
X94.012 Y-77.996 Z-4.558
X94.019 Y-78.083 Z-4.522
X94.025 Y-78.163 Z-4.473
X94.03 Y-78.234 Z-4.412
X94.035 Y-78.295 Z-4.34
X94.039 Y-78.344 Z-4.26
X94.042 Y-78.38 Z-4.173
X94.043 Y-78.402 Z-4.081
X94.044 Y-78.409 Z-3.987
G0 Z5
X103.086 Y-68.341
Z-3.388
G1 Z-3.987 F2388.4
X103.08 Y-68.346 Z-4.081
X103.064 Y-68.36 Z-4.173
X103.037 Y-68.384 Z-4.26
X103 Y-68.417 Z-4.34
X102.955 Y-68.458 Z-4.412
X102.901 Y-68.506 Z-4.473
X102.842 Y-68.559 Z-4.522
X102.777 Y-68.617 Z-4.558
X102.708 Y-68.678 Z-4.58
X102.638 Y-68.74 Z-4.588
G3 X102.2 Y-69.392 I1.054 J-1.181
G1 X102.058 Y-69.836
X102.044 Y-69.869
X101.995 Y-70.011
X101.952 Y-70.155
X101.916 Y-70.3
X101.884 Y-70.447
X101.853 Y-70.605
X101.796 Y-70.928
X101.658 Y-71.804
X101.48 Y-72.672
X101.173 Y-73.503
X100.725 Y-74.268
X100.146 Y-74.938
X99.456 Y-75.495
X98.684 Y-75.929
X97.855 Y-76.244
X96.995 Y-76.454
X96.157 Y-76.578
X95.85 Y-76.641
X95.552 Y-76.737
X95.266 Y-76.865
X95.025 Y-76.989
G3 X94.737 Y-77.66 I0.293 J-0.524
G1 X94.76 Y-77.751 Z-4.58
X94.782 Y-77.839 Z-4.558
X94.803 Y-77.924 Z-4.522
X94.823 Y-78.001 Z-4.473
X94.841 Y-78.071 Z-4.412
X94.856 Y-78.13 Z-4.34
X94.868 Y-78.178 Z-4.26
X94.877 Y-78.213 Z-4.173
X94.882 Y-78.234 Z-4.081
X94.884 Y-78.241 Z-3.987
G0 Z5
X103.007 Y-68.888
Z-3.388
G1 Z-3.987 F2388.4
X103.002 Y-68.893 Z-4.081
X102.984 Y-68.906 Z-4.173
X102.955 Y-68.928 Z-4.26
X102.916 Y-68.958 Z-4.34
X102.868 Y-68.995 Z-4.412
X102.811 Y-69.038 Z-4.473
X102.747 Y-69.087 Z-4.522
X102.678 Y-69.14 Z-4.558
X102.605 Y-69.195 Z-4.58
X102.531 Y-69.252 Z-4.588
G3 X102.044 Y-69.869 I0.961 J-1.258
G1 X101.977 Y-70.037
X101.925 Y-70.14
X101.865 Y-70.277
X101.811 Y-70.417
X101.764 Y-70.56
X101.723 Y-70.704
X101.685 Y-70.849
X101.577 Y-71.294
X101.384 Y-72.158
X101.111 Y-73.001
X100.708 Y-73.79
X100.172 Y-74.496
X99.519 Y-75.095
X98.773 Y-75.574
X97.963 Y-75.932
X97.112 Y-76.181
X96.582 Y-76.288
X96.33 Y-76.356
X96.085 Y-76.447
X95.849 Y-76.559
G3 X95.571 Y-77.235 I0.301 J-0.519
G1 X95.596 Y-77.325 Z-4.58
X95.62 Y-77.414 Z-4.558
X95.642 Y-77.498 Z-4.522
X95.663 Y-77.575 Z-4.473
X95.682 Y-77.644 Z-4.412
X95.698 Y-77.703 Z-4.34
X95.711 Y-77.751 Z-4.26
X95.72 Y-77.786 Z-4.173
X95.726 Y-77.807 Z-4.081
X95.728 Y-77.814 Z-3.987
G0 Z5
X102.966 Y-69.242
Z-3.388
G1 Z-3.987 F2388.4
X102.96 Y-69.246 Z-4.081
X102.941 Y-69.258 Z-4.173
X102.911 Y-69.277 Z-4.26
X102.869 Y-69.304 Z-4.34
X102.818 Y-69.337 Z-4.412
X102.758 Y-69.376 Z-4.473
X102.69 Y-69.419 Z-4.522
X102.617 Y-69.466 Z-4.558
X102.54 Y-69.515 Z-4.58
X102.461 Y-69.566 Z-4.588
G3 X101.925 Y-70.14 I0.853 J-1.333
G1 X101.775 Y-70.439
X101.744 Y-70.5
X101.673 Y-70.655
X101.613 Y-70.793
X101.56 Y-70.933
X101.511 Y-71.074
X101.239 Y-71.918
X100.951 Y-72.756
X100.547 Y-73.544
X100.014 Y-74.253
X99.366 Y-74.857
X98.626 Y-75.344
X97.818 Y-75.709
X97.179 Y-75.907
X97.007 Y-75.967
X96.839 Y-76.037
X96.676 Y-76.118
G3 X96.398 Y-76.793 I0.301 J-0.519
G1 X96.422 Y-76.884 Z-4.58
X96.446 Y-76.972 Z-4.558
X96.469 Y-77.056 Z-4.522
X96.49 Y-77.133 Z-4.473
X96.509 Y-77.203 Z-4.412
X96.525 Y-77.262 Z-4.34
X96.537 Y-77.309 Z-4.26
X96.547 Y-77.344 Z-4.173
X96.553 Y-77.365 Z-4.081
X96.555 Y-77.372 Z-3.987
G0 Z5
X102.796 Y-69.615
Z-3.388
G1 Z-3.987 F2388.4
X102.789 Y-69.619 Z-4.081
X102.771 Y-69.631 Z-4.173
X102.74 Y-69.65 Z-4.26
X102.698 Y-69.676 Z-4.34
X102.646 Y-69.708 Z-4.412
X102.586 Y-69.746 Z-4.473
X102.518 Y-69.788 Z-4.522
X102.444 Y-69.834 Z-4.558
X102.366 Y-69.883 Z-4.58
X102.286 Y-69.932 Z-4.588
G3 X101.744 Y-70.5 I0.837 J-1.343
G1 X101.669 Y-70.644
X101.468 Y-71.021
X101.32 Y-71.335
X101.252 Y-71.486
X100.903 Y-72.3
X100.518 Y-73.099
X100.017 Y-73.829
X99.4 Y-74.465
X98.685 Y-74.989
X97.897 Y-75.395
X97.861 Y-75.41
X97.702 Y-75.482
X97.551 Y-75.57
X97.409 Y-75.672
G3 X97.339 Y-76.558 I0.367 J-0.475
X98.228 Y-76.541 I0.437 J0.411
G1 X102.439 Y-71.716
G3 X102.336 Y-70.834 I-0.452 J0.395
X101.468 Y-71.021 I-0.349 J-0.488
G1 X101.026 Y-71.848
X100.864 Y-72.115
X100.441 Y-72.894
X99.903 Y-73.598
X99.278 Y-74.227
X98.565 Y-74.752
X98.494 Y-74.796
X98.425 Y-74.844
X98.359 Y-74.895
G3 X98.329 Y-75.767 I0.397 J-0.45
X99.202 Y-75.747 I0.427 J0.422
G1 X101.811 Y-72.847
G3 X101.732 Y-71.971 I-0.446 J0.401
X100.864 Y-72.115 I-0.367 J-0.475
G1 X100.781 Y-72.251
X100.662 Y-72.422
X100.639 Y-72.452
X99.454 Y-73.896
X99.253 Y-74.126
X99.111 Y-74.263
X99.052 Y-74.318
X98.884 Y-74.464
X97.643 Y-75.483
X97.409 Y-75.672
X97.24 Y-75.785
X97.039 Y-75.911
X96.837 Y-76.031
X95.627 Y-76.678
X95.266 Y-76.865
G3 X94.977 Y-77.536 I0.293 J-0.524
G1 X95 Y-77.627 Z-4.58
X95.023 Y-77.715 Z-4.558
X95.044 Y-77.8 Z-4.522
X95.064 Y-77.878 Z-4.473
X95.082 Y-77.947 Z-4.412
X95.097 Y-78.006 Z-4.34
X95.109 Y-78.054 Z-4.26
X95.118 Y-78.089 Z-4.173
X95.123 Y-78.11 Z-4.081
X95.125 Y-78.117 Z-3.987
G0 Z15