(ROV-300-24_OP1)
(T1  D=3.175 CR=0 - ZMIN=0 - flat end mill)
(Bore1)
T1
S11999 M3
G54
M8
G0 X-83.683 Y-51.881
Z21.35
Z8
G1 Z6.318 F1289.1
G19 G3 Y-51.564 Z6 J0.317 K0
G1 Y-51.405
G17 G3 X-84 Y-51.088 I-0.317 J0
X-84 Y-52.912 Z5.5 I0 J-0.912 F1289
X-84 Y-51.088 Z5 I0 J0.912
X-84 Y-52.912 Z4.5 I0 J-0.912
X-84 Y-51.088 Z4 I0 J0.912
X-84 Y-52.912 Z3.5 I0 J-0.912
X-84 Y-51.088 Z3 I0 J0.912
X-84 Y-52.912 Z2.5 I0 J-0.912
X-84 Y-51.088 Z2 I0 J0.912
X-84 Y-52.912 Z1.5 I0 J-0.912
X-84 Y-51.088 Z1 I0 J0.912
X-84 Y-52.912 Z0.5 I0 J-0.912
X-84 Y-51.088 Z0 I0 J0.912
X-84 Y-52.912 I0 J-0.912
X-84 Y-51.088 I0 J0.912
X-84.317 Y-51.405 I0 J-0.317 F1289.1
G1 Y-51.564
G19 G2 Y-51.881 Z0.317 J0 K0.317
G0 Z11.35
X-83.683 Y52.119
Z8
G1 Z6.318 F1289.1
G3 Y52.436 Z6 J0.317 K0
G1 Y52.595
G17 G3 X-84 Y52.912 I-0.317 J0
X-84 Y51.088 Z5.5 I0 J-0.912 F1289
X-84 Y52.912 Z5 I0 J0.912
X-84 Y51.088 Z4.5 I0 J-0.912
X-84 Y52.912 Z4 I0 J0.912
X-84 Y51.088 Z3.5 I0 J-0.912
X-84 Y52.912 Z3 I0 J0.912
X-84 Y51.088 Z2.5 I0 J-0.912
X-84 Y52.912 Z2 I0 J0.912
X-84 Y51.088 Z1.5 I0 J-0.912
X-84 Y52.912 Z1 I0 J0.912
X-84 Y51.088 Z0.5 I0 J-0.912
X-84 Y52.912 Z0 I0 J0.912
X-84 Y51.088 I0 J-0.912
X-84 Y52.912 I0 J0.912
X-84.317 Y52.595 I0 J-0.317 F1289.1
G1 Y52.436
G19 G2 Y52.119 Z0.317 J0 K0.317
G0 Z11.35
X84.317
Z8
G1 Z6.318 F1289.1
G3 Y52.436 Z6 J0.317 K0
G1 Y52.595
G17 G3 X84 Y52.912 I-0.317 J0
X84 Y51.088 Z5.5 I0 J-0.912 F1289
X84 Y52.912 Z5 I0 J0.912
X84 Y51.088 Z4.5 I0 J-0.912
X84 Y52.912 Z4 I0 J0.912
X84 Y51.088 Z3.5 I0 J-0.912
X84 Y52.912 Z3 I0 J0.912
X84 Y51.088 Z2.5 I0 J-0.912
X84 Y52.912 Z2 I0 J0.912
X84 Y51.088 Z1.5 I0 J-0.912
X84 Y52.912 Z1 I0 J0.912
X84 Y51.088 Z0.5 I0 J-0.912
X84 Y52.912 Z0 I0 J0.912
X84 Y51.088 I0 J-0.912
X84 Y52.912 I0 J0.912
X83.683 Y52.595 I0 J-0.317 F1289.1
G1 Y52.436
G19 G2 Y52.119 Z0.317 J0 K0.317
G0 Z11.35
X84.317 Y-51.881
Z8
G1 Z6.318 F1289.1
G3 Y-51.564 Z6 J0.317 K0
G1 Y-51.405
G17 G3 X84 Y-51.088 I-0.317 J0
X84 Y-52.912 Z5.5 I0 J-0.912 F1289
X84 Y-51.088 Z5 I0 J0.912
X84 Y-52.912 Z4.5 I0 J-0.912
X84 Y-51.088 Z4 I0 J0.912
X84 Y-52.912 Z3.5 I0 J-0.912
X84 Y-51.088 Z3 I0 J0.912
X84 Y-52.912 Z2.5 I0 J-0.912
X84 Y-51.088 Z2 I0 J0.912
X84 Y-52.912 Z1.5 I0 J-0.912
X84 Y-51.088 Z1 I0 J0.912
X84 Y-52.912 Z0.5 I0 J-0.912
X84 Y-51.088 Z0 I0 J0.912
X84 Y-52.912 I0 J-0.912
X84 Y-51.088 I0 J0.912
X83.683 Y-51.405 I0 J-0.317 F1289.1
G1 Y-51.564
G19 G2 Y-51.881 Z0.317 J0 K0.317
G0 Z21.35
G17

(2D Contour1)
G0 X56.46 Y-15.318
Z21.35
Z11.35
G1 Z9.35 F429.7
Z4.667
G18 G2 X56.778 Z4.35 I0.318 K0 F1289.1
G1 X57.095
G17 G3 X57.412 Y-15 I0 J0.318
X54.588 Y-15 I-1.412 J0 F1289
G1 Y-35
G3 X57.412 Y-35 I1.412 J0
G1 Y-15
G3 X57.095 Y-14.682 I-0.317 J0 F1289.1
G1 X56.778
G18 G3 X56.46 Z4.667 I0 K0.318
G0 Z11.35
Y-15.318
G1 Z7.35 F429.7
Z2.667
G2 X56.778 Z2.35 I0.318 K0 F1289.1
G1 X57.095
G17 G3 X57.412 Y-15 I0 J0.318
X54.588 Y-15 I-1.412 J0 F1289
G1 Y-35
G3 X57.412 Y-35 I1.412 J0
G1 Y-15
G3 X57.095 Y-14.682 I-0.317 J0 F1289.1
G1 X56.778
G18 G3 X56.46 Z2.667 I0 K0.318
G0 Z11.35
Y-15.318
G1 Z5.35 F429.7
Z1.492
G2 X56.778 Z1.175 I0.318 K0 F1289.1
G1 X57.095
G17 G3 X57.412 Y-15 I0 J0.318
X54.588 Y-15 I-1.412 J0 F1289
G1 Y-35
G3 X57.412 Y-35 I1.412 J0
G1 Y-15
G3 X57.095 Y-14.682 I-0.317 J0 F1289.1
G1 X56.778
G18 G3 X56.46 Z1.492 I0 K0.317
G0 Z11.35
Y-15.318
G1 Z4.175 F429.7
Z0.317
G2 X56.778 Z0 I0.318 K0 F1289.1
G1 X57.095
G17 G3 X57.412 Y-15 I0 J0.318
X54.588 Y-15 I-1.412 J0 F1289
G1 Y-35
G3 X57.412 Y-35 I1.412 J0
G1 Y-15
G3 X57.095 Y-14.682 I-0.317 J0 F1289.1
G1 X56.778
G18 G3 X56.46 Z0.317 I0 K0.317
G0 Z11.35
X84.46 Y-15.318
G1 Z9.35 F429.7
Z4.667
G2 X84.777 Z4.35 I0.317 K0 F1289.1
G1 X85.095
G17 G3 X85.412 Y-15 I0 J0.318
X82.588 Y-15 I-1.412 J0 F1289
G1 Y-35
G3 X85.412 Y-35 I1.412 J0
G1 Y-15
G3 X85.095 Y-14.682 I-0.317 J0 F1289.1
G1 X84.777
G18 G3 X84.46 Z4.667 I0 K0.318
G0 Z11.35
Y-15.318
G1 Z7.35 F429.7
Z2.667
G2 X84.777 Z2.35 I0.317 K0 F1289.1
G1 X85.095
G17 G3 X85.412 Y-15 I0 J0.318
X82.588 Y-15 I-1.412 J0 F1289
G1 Y-35
G3 X85.412 Y-35 I1.412 J0
G1 Y-15
G3 X85.095 Y-14.682 I-0.317 J0 F1289.1
G1 X84.777
G18 G3 X84.46 Z2.667 I0 K0.318
G0 Z11.35
Y-15.318
G1 Z5.35 F429.7
Z1.492
G2 X84.777 Z1.175 I0.317 K0 F1289.1
G1 X85.095
G17 G3 X85.412 Y-15 I0 J0.318
X82.588 Y-15 I-1.412 J0 F1289
G1 Y-35
G3 X85.412 Y-35 I1.412 J0
G1 Y-15
G3 X85.095 Y-14.682 I-0.317 J0 F1289.1
G1 X84.777
G18 G3 X84.46 Z1.492 I0 K0.317
G0 Z11.35
Y-15.318
G1 Z4.175 F429.7
Z0.317
G2 X84.777 Z0 I0.317 K0 F1289.1
G1 X85.095
G17 G3 X85.412 Y-15 I0 J0.318
X82.588 Y-15 I-1.412 J0 F1289
G1 Y-35
G3 X85.412 Y-35 I1.412 J0
G1 Y-15
G3 X85.095 Y-14.682 I-0.317 J0 F1289.1
G1 X84.777
G18 G3 X84.46 Z0.317 I0 K0.317
G0 Z11.35
X85.317 Y-62.54
G1 Z9.35 F429.7
Z4.667
G19 G3 Y-62.222 Z4.35 J0.318 K0 F1289.1
G1 Y-61.905
G17 G3 X85 Y-61.588 I-0.317 J0
G1 X-85 F1289
G2 X-91.588 Y-55 I0 J6.588
G1 Y55
G2 X-85 Y61.588 I6.588 J0
G1 X85
G2 X91.588 Y55 I0 J-6.588
G1 Y-55
G2 X85 Y-61.588 I-6.588 J0
G3 X84.683 Y-61.905 I0 J-0.317 F1289.1
G1 Y-62.222
G19 G2 Y-62.54 Z4.667 J0 K0.318
G0 Z11.35
X85.317
G1 Z7.35 F429.7
Z2.667
G3 Y-62.222 Z2.35 J0.318 K0 F1289.1
G1 Y-61.905
G17 G3 X85 Y-61.588 I-0.317 J0
G1 X-85 F1289
G2 X-91.588 Y-55 I0 J6.588
G1 Y55
G2 X-85 Y61.588 I6.588 J0
G1 X85
G2 X91.588 Y55 I0 J-6.588
G1 Y-55
G2 X85 Y-61.588 I-6.588 J0
G3 X84.683 Y-61.905 I0 J-0.317 F1289.1
G1 Y-62.222
G19 G2 Y-62.54 Z2.667 J0 K0.318
G0 Z11.35
X85.317
G1 Z5.35 F429.7
Z1.492
G3 Y-62.222 Z1.175 J0.318 K0 F1289.1
G1 Y-61.905
G17 G3 X85 Y-61.588 I-0.317 J0
G1 X-85 F1289
G2 X-91.588 Y-55 I0 J6.588
G1 Y55
G2 X-85 Y61.588 I6.588 J0
G1 X85
G2 X91.588 Y55 I0 J-6.588
G1 Y-55
G2 X85 Y-61.588 I-6.588 J0
G3 X84.683 Y-61.905 I0 J-0.317 F1289.1
G1 Y-62.222
G19 G2 Y-62.54 Z1.492 J0 K0.317
G0 Z11.35
X85.317
G1 Z4.175 F429.7
Z0.317
G3 Y-62.222 Z0 J0.318 K0 F1289.1
G1 Y-61.905
G17 G3 X85 Y-61.588 I-0.317 J0
G1 X-85 F1289
G2 X-91.588 Y-55 I0 J6.588
G1 Y55
G2 X-85 Y61.588 I6.588 J0
G1 X85
G2 X91.588 Y55 I0 J-6.588
G1 Y-55
G2 X85 Y-61.588 I-6.588 J0
G3 X84.683 Y-61.905 I0 J-0.317 F1289.1
G1 Y-62.222
G19 G2 Y-62.54 Z0.317 J0 K0.317
G0 Z11.35
X84.46 Y14.682
G1 Z9.35 F429.7
Z4.667
G18 G2 X84.777 Z4.35 I0.317 K0 F1289.1
G1 X85.095
G17 G3 X85.412 Y15 I0 J0.318
G1 Y35 F1289
G3 X82.588 Y35 I-1.412 J0
G1 Y15
G3 X85.412 Y15 I1.412 J0
X85.095 Y15.318 I-0.317 J0 F1289.1
G1 X84.777
G18 G3 X84.46 Z4.667 I0 K0.318
G0 Z11.35
Y14.682
G1 Z7.35 F429.7
Z2.667
G2 X84.777 Z2.35 I0.317 K0 F1289.1
G1 X85.095
G17 G3 X85.412 Y15 I0 J0.318
G1 Y35 F1289
G3 X82.588 Y35 I-1.412 J0
G1 Y15
G3 X85.412 Y15 I1.412 J0
X85.095 Y15.318 I-0.317 J0 F1289.1
G1 X84.777
G18 G3 X84.46 Z2.667 I0 K0.318
G0 Z11.35
Y14.682
G1 Z5.35 F429.7
Z1.492
G2 X84.777 Z1.175 I0.317 K0 F1289.1
G1 X85.095
G17 G3 X85.412 Y15 I0 J0.318
G1 Y35 F1289
G3 X82.588 Y35 I-1.412 J0
G1 Y15
G3 X85.412 Y15 I1.412 J0
X85.095 Y15.318 I-0.317 J0 F1289.1
G1 X84.777
G18 G3 X84.46 Z1.492 I0 K0.317
G0 Z11.35
Y14.682
G1 Z4.175 F429.7
Z0.317
G2 X84.777 Z0 I0.317 K0 F1289.1
G1 X85.095
G17 G3 X85.412 Y15 I0 J0.318
G1 Y35 F1289
G3 X82.588 Y35 I-1.412 J0
G1 Y15
G3 X85.412 Y15 I1.412 J0
X85.095 Y15.318 I-0.317 J0 F1289.1
G1 X84.777
G18 G3 X84.46 Z0.317 I0 K0.317
G0 Z11.35
X56.46 Y15.037
G1 Z9.35 F429.7
Z4.667
G2 X56.778 Z4.35 I0.318 K0 F1289.1
G1 X57.095
G17 G3 X57.412 Y15.354 I0 J0.318
G1 Y35 F1289
G3 X54.588 Y35 I-1.412 J0
G1 Y15
G3 X57.412 Y15 I1.412 J0
G1 Y15.354
G3 X57.095 Y15.672 I-0.317 J0 F1289.1
G1 X56.778
G18 G3 X56.46 Z4.667 I0 K0.318
G0 Z11.35
Y15.037
G1 Z7.35 F429.7
Z2.667
G2 X56.778 Z2.35 I0.318 K0 F1289.1
G1 X57.095
G17 G3 X57.412 Y15.354 I0 J0.318
G1 Y35 F1289
G3 X54.588 Y35 I-1.412 J0
G1 Y15
G3 X57.412 Y15 I1.412 J0
G1 Y15.354
G3 X57.095 Y15.672 I-0.317 J0 F1289.1
G1 X56.778
G18 G3 X56.46 Z2.667 I0 K0.318
G0 Z11.35
Y15.037
G1 Z5.35 F429.7
Z1.492
G2 X56.778 Z1.175 I0.318 K0 F1289.1
G1 X57.095
G17 G3 X57.412 Y15.354 I0 J0.318
G1 Y35 F1289
G3 X54.588 Y35 I-1.412 J0
G1 Y15
G3 X57.412 Y15 I1.412 J0
G1 Y15.354
G3 X57.095 Y15.672 I-0.317 J0 F1289.1
G1 X56.778
G18 G3 X56.46 Z1.492 I0 K0.317
G0 Z11.35
Y15.037
G1 Z4.175 F429.7
Z0.317
G2 X56.778 Z0 I0.318 K0 F1289.1
G1 X57.095
G17 G3 X57.412 Y15.354 I0 J0.318
G1 Y35 F1289
G3 X54.588 Y35 I-1.412 J0
G1 Y15
G3 X57.412 Y15 I1.412 J0
G1 Y15.354
G3 X57.095 Y15.672 I-0.317 J0 F1289.1
G1 X56.778
G18 G3 X56.46 Z0.317 I0 K0.317
G0 Z11.35
X-55.54 Y14.682
G1 Z9.35 F429.7
Z4.667
G2 X-55.222 Z4.35 I0.318 K0 F1289.1
G1 X-54.905
G17 G3 X-54.588 Y15 I0 J0.318
G1 Y35 F1289
G3 X-57.412 Y35 I-1.412 J0
G1 Y15
G3 X-54.588 Y15 I1.412 J0
X-54.905 Y15.318 I-0.317 J0 F1289.1
G1 X-55.222
G18 G3 X-55.54 Z4.667 I0 K0.318
G0 Z11.35
Y14.682
G1 Z7.35 F429.7
Z2.667
G2 X-55.222 Z2.35 I0.318 K0 F1289.1
G1 X-54.905
G17 G3 X-54.588 Y15 I0 J0.318
G1 Y35 F1289
G3 X-57.412 Y35 I-1.412 J0
G1 Y15
G3 X-54.588 Y15 I1.412 J0
X-54.905 Y15.318 I-0.317 J0 F1289.1
G1 X-55.222
G18 G3 X-55.54 Z2.667 I0 K0.318
G0 Z11.35
Y14.682
G1 Z5.35 F429.7
Z1.492
G2 X-55.222 Z1.175 I0.318 K0 F1289.1
G1 X-54.905
G17 G3 X-54.588 Y15 I0 J0.318
G1 Y35 F1289
G3 X-57.412 Y35 I-1.412 J0
G1 Y15
G3 X-54.588 Y15 I1.412 J0
X-54.905 Y15.318 I-0.317 J0 F1289.1
G1 X-55.222
G18 G3 X-55.54 Z1.492 I0 K0.317
G0 Z11.35
Y14.682
G1 Z4.175 F429.7
Z0.317
G2 X-55.222 Z0 I0.318 K0 F1289.1
G1 X-54.905
G17 G3 X-54.588 Y15 I0 J0.318
G1 Y35 F1289
G3 X-57.412 Y35 I-1.412 J0
G1 Y15
G3 X-54.588 Y15 I1.412 J0
X-54.905 Y15.318 I-0.317 J0 F1289.1
G1 X-55.222
G18 G3 X-55.54 Z0.317 I0 K0.317
G0 Z11.35
X-83.54 Y14.682
G1 Z9.35 F429.7
Z4.667
G2 X-83.223 Z4.35 I0.317 K0 F1289.1
G1 X-82.905
G17 G3 X-82.588 Y15 I0 J0.318
G1 Y35 F1289
G3 X-85.412 Y35 I-1.412 J0
G1 Y15
G3 X-82.588 Y15 I1.412 J0
X-82.905 Y15.318 I-0.317 J0 F1289.1
G1 X-83.223
G18 G3 X-83.54 Z4.667 I0 K0.318
G0 Z11.35
Y14.682
G1 Z7.35 F429.7
Z2.667
G2 X-83.223 Z2.35 I0.317 K0 F1289.1
G1 X-82.905
G17 G3 X-82.588 Y15 I0 J0.318
G1 Y35 F1289
G3 X-85.412 Y35 I-1.412 J0
G1 Y15
G3 X-82.588 Y15 I1.412 J0
X-82.905 Y15.318 I-0.317 J0 F1289.1
G1 X-83.223
G18 G3 X-83.54 Z2.667 I0 K0.318
G0 Z11.35
Y14.682
G1 Z5.35 F429.7
Z1.492
G2 X-83.223 Z1.175 I0.317 K0 F1289.1
G1 X-82.905
G17 G3 X-82.588 Y15 I0 J0.318
G1 Y35 F1289
G3 X-85.412 Y35 I-1.412 J0
G1 Y15
G3 X-82.588 Y15 I1.412 J0
X-82.905 Y15.318 I-0.317 J0 F1289.1
G1 X-83.223
G18 G3 X-83.54 Z1.492 I0 K0.317
G0 Z11.35
Y14.682
G1 Z4.175 F429.7
Z0.317
G2 X-83.223 Z0 I0.317 K0 F1289.1
G1 X-82.905
G17 G3 X-82.588 Y15 I0 J0.318
G1 Y35 F1289
G3 X-85.412 Y35 I-1.412 J0
G1 Y15
G3 X-82.588 Y15 I1.412 J0
X-82.905 Y15.318 I-0.317 J0 F1289.1
G1 X-83.223
G18 G3 X-83.54 Z0.317 I0 K0.317
G0 Z11.35
Y-15.318
G1 Z9.35 F429.7
Z4.667
G2 X-83.223 Z4.35 I0.317 K0 F1289.1
G1 X-82.905
G17 G3 X-82.588 Y-15 I0 J0.318
X-85.412 Y-15 I-1.412 J0 F1289
G1 Y-35
G3 X-82.588 Y-35 I1.412 J0
G1 Y-15
G3 X-82.905 Y-14.682 I-0.317 J0 F1289.1
G1 X-83.223
G18 G3 X-83.54 Z4.667 I0 K0.318
G0 Z11.35
Y-15.318
G1 Z7.35 F429.7
Z2.667
G2 X-83.223 Z2.35 I0.317 K0 F1289.1
G1 X-82.905
G17 G3 X-82.588 Y-15 I0 J0.318
X-85.412 Y-15 I-1.412 J0 F1289
G1 Y-35
G3 X-82.588 Y-35 I1.412 J0
G1 Y-15
G3 X-82.905 Y-14.682 I-0.317 J0 F1289.1
G1 X-83.223
G18 G3 X-83.54 Z2.667 I0 K0.318
G0 Z11.35
Y-15.318
G1 Z5.35 F429.7
Z1.492
G2 X-83.223 Z1.175 I0.317 K0 F1289.1
G1 X-82.905
G17 G3 X-82.588 Y-15 I0 J0.318
X-85.412 Y-15 I-1.412 J0 F1289
G1 Y-35
G3 X-82.588 Y-35 I1.412 J0
G1 Y-15
G3 X-82.905 Y-14.682 I-0.317 J0 F1289.1
G1 X-83.223
G18 G3 X-83.54 Z1.492 I0 K0.317
G0 Z11.35
Y-15.318
G1 Z4.175 F429.7
Z0.317
G2 X-83.223 Z0 I0.317 K0 F1289.1
G1 X-82.905
G17 G3 X-82.588 Y-15 I0 J0.318
X-85.412 Y-15 I-1.412 J0 F1289
G1 Y-35
G3 X-82.588 Y-35 I1.412 J0
G1 Y-15
G3 X-82.905 Y-14.682 I-0.317 J0 F1289.1
G1 X-83.223
G18 G3 X-83.54 Z0.317 I0 K0.317
G0 Z11.35
X-55.54 Y-15.318
G1 Z9.35 F429.7
Z4.667
G2 X-55.222 Z4.35 I0.318 K0 F1289.1
G1 X-54.905
G17 G3 X-54.588 Y-15 I0 J0.318
X-57.412 Y-15 I-1.412 J0 F1289
G1 Y-35
G3 X-54.588 Y-35 I1.412 J0
G1 Y-15
G3 X-54.905 Y-14.682 I-0.317 J0 F1289.1
G1 X-55.222
G18 G3 X-55.54 Z4.667 I0 K0.318
G0 Z11.35
Y-15.318
G1 Z7.35 F429.7
Z2.667
G2 X-55.222 Z2.35 I0.318 K0 F1289.1
G1 X-54.905
G17 G3 X-54.588 Y-15 I0 J0.318
X-57.412 Y-15 I-1.412 J0 F1289
G1 Y-35
G3 X-54.588 Y-35 I1.412 J0
G1 Y-15
G3 X-54.905 Y-14.682 I-0.317 J0 F1289.1
G1 X-55.222
G18 G3 X-55.54 Z2.667 I0 K0.318
G0 Z11.35
Y-15.318
G1 Z5.35 F429.7
Z1.492
G2 X-55.222 Z1.175 I0.318 K0 F1289.1
G1 X-54.905
G17 G3 X-54.588 Y-15 I0 J0.318
X-57.412 Y-15 I-1.412 J0 F1289
G1 Y-35
G3 X-54.588 Y-35 I1.412 J0
G1 Y-15
G3 X-54.905 Y-14.682 I-0.317 J0 F1289.1
G1 X-55.222
G18 G3 X-55.54 Z1.492 I0 K0.317
G0 Z11.35
Y-15.318
G1 Z4.175 F429.7
Z0.317
G2 X-55.222 Z0 I0.318 K0 F1289.1
G1 X-54.905
G17 G3 X-54.588 Y-15 I0 J0.318
X-57.412 Y-15 I-1.412 J0 F1289
G1 Y-35
G3 X-54.588 Y-35 I1.412 J0
G1 Y-15
G3 X-54.905 Y-14.682 I-0.317 J0 F1289.1
G1 X-55.222
G18 G3 X-55.54 Z0.317 I0 K0.317
G0 Z21.35