(SLA-turntable-150mm)
(T1  D=3.175 CR=0 - ZMIN=-3.25 - flat end mill)
(2D Contour2)
T1
S11999 M3
G54
M8
G0 X51.893 Y16.527
Z15
Z5
G1 Z1 F425
Z-2.933
X51.9 Y16.53 Z-3.003 F1275
X51.923 Y16.537 Z-3.07
X51.958 Y16.548 Z-3.13
X52.006 Y16.564 Z-3.181
X52.064 Y16.583 Z-3.219
X52.127 Y16.603 Z-3.242
X52.195 Y16.625 Z-3.25
X52.497 Y16.723
G3 X52.7 Y17.123 I-0.098 J0.302
X52.181 Y17.388 I-0.392 J-0.127 F1274.9
G1 X18.894 Y6.573
G3 X18.629 Y6.053 I0.127 J-0.392
X19.149 Y5.788 I0.392 J0.127
G1 X52.436 Y16.604
G3 X52.7 Y17.123 I-0.127 J0.392
X52.3 Y17.327 I-0.302 J-0.098 F1275
G1 X51.998 Y17.229
X51.931 Y17.207 Z-3.242
X51.867 Y17.187 Z-3.219
X51.81 Y17.168 Z-3.181
X51.762 Y17.152 Z-3.13
X51.726 Y17.141 Z-3.07
X51.704 Y17.133 Z-3.003
X51.696 Y17.131 Z-2.933
G0 Z5
X77.54 Y0.317
G1 Z1 F425
Z-2.933
G18 G3 X77.223 Z-3.25 I-0.317 K0 F1275
G1 X76.905
G17 G3 X76.588 Y0 I0 J-0.317
G2 X-76.588 Y0 I-76.588 J0 F1274.9
X-54.156 Y54.156 I76.588 J0
X0 Y76.588 I54.155 J-54.156
X76.588 Y0 I0 J-76.588
G3 X76.905 Y-0.317 I0.317 J0 F1275
G1 X77.223
G18 G2 X77.54 Z-2.933 I0 K0.318
G0 Z5
X12.33 Y-16.431
G1 Z1 F425
Z-2.933
X12.325 Y-16.424 Z-3.003 F1275
X12.311 Y-16.405 Z-3.07
X12.289 Y-16.375 Z-3.13
X12.26 Y-16.334 Z-3.181
X12.224 Y-16.285 Z-3.219
X12.185 Y-16.231 Z-3.242
X12.143 Y-16.174 Z-3.25
X11.957 Y-15.917
G17 G3 X11.513 Y-15.847 I-0.257 J-0.187
X11.422 Y-16.423 I0.242 J-0.334 F1274.9
G1 X31.995 Y-44.738
G3 X32.662 Y-44.253 I0.334 J0.242
G1 X12.089 Y-15.938
G3 X11.513 Y-15.847 I-0.334 J-0.242
X11.443 Y-16.29 I0.187 J-0.257 F1275
G1 X11.63 Y-16.547
X11.671 Y-16.604 Z-3.242
X11.711 Y-16.658 Z-3.219
X11.746 Y-16.707 Z-3.181
X11.776 Y-16.748 Z-3.13
X11.798 Y-16.778 Z-3.07
X11.812 Y-16.797 Z-3.003
X11.816 Y-16.804 Z-2.933
G0 Z5
X-11.816
G1 Z1 F425
Z-2.933
X-11.812 Y-16.797 Z-3.003 F1275
X-11.798 Y-16.778 Z-3.07
X-11.776 Y-16.748 Z-3.13
X-11.746 Y-16.707 Z-3.181
X-11.711 Y-16.658 Z-3.219
X-11.671 Y-16.604 Z-3.242
X-11.63 Y-16.547 Z-3.25
X-11.443 Y-16.29
G3 X-11.513 Y-15.847 I-0.257 J0.187
X-12.089 Y-15.938 I-0.242 J-0.334 F1274.9
G1 X-32.662 Y-44.253
G3 X-31.995 Y-44.738 I0.334 J-0.242
G1 X-11.422 Y-16.423
G3 X-11.513 Y-15.847 I-0.334 J0.242
X-11.957 Y-15.917 I-0.187 J-0.257 F1275
G1 X-12.143 Y-16.174
X-12.185 Y-16.231 Z-3.242
X-12.224 Y-16.285 Z-3.219
X-12.26 Y-16.334 Z-3.181
X-12.289 Y-16.375 Z-3.13
X-12.311 Y-16.405 Z-3.07
X-12.325 Y-16.424 Z-3.003
X-12.33 Y-16.431 Z-2.933
G0 Z5
X-19.633 Y6.045
G1 Z1 F425
Z-2.933
X-19.625 Y6.043 Z-3.003 F1275
X-19.603 Y6.036 Z-3.07
X-19.567 Y6.024 Z-3.13
X-19.519 Y6.008 Z-3.181
X-19.462 Y5.99 Z-3.219
X-19.398 Y5.969 Z-3.242
X-19.331 Y5.947 Z-3.25
X-19.029 Y5.849
G3 X-18.629 Y6.053 I0.098 J0.302
X-18.894 Y6.573 I-0.392 J0.127 F1274.9
G1 X-52.181 Y17.388
G3 X-52.436 Y16.604 I-0.127 J-0.392
G1 X-19.149 Y5.788
G3 X-18.629 Y6.053 I0.128 J0.392
X-18.833 Y6.453 I-0.302 J0.098 F1275
G1 X-19.135 Y6.551
X-19.202 Y6.573 Z-3.242
X-19.266 Y6.594 Z-3.219
X-19.323 Y6.612 Z-3.181
X-19.371 Y6.628 Z-3.13
X-19.407 Y6.639 Z-3.07
X-19.429 Y6.647 Z-3.003
X-19.437 Y6.649 Z-2.933
G0 Z5
X0.317 Y54.46
G1 Z1 F425
Z-2.933
G19 G3 Y54.778 Z-3.25 J0.318 K0 F1275
G1 Y55.095
G17 G3 X0 Y55.412 I-0.317 J0
X-0.412 Y55 I0 J-0.412 F1274.9
G1 Y20
G3 X0.412 Y20 I0.412 J0
G1 Y55
G3 X0 Y55.412 I-0.412 J0
X-0.317 Y55.095 I0 J-0.317 F1275
G1 Y54.778
G19 G2 Y54.46 Z-2.933 J0 K0.318
G0 Z15