(straight bevel pinion stage 1)
(T1  D=6 CR=0 - ZMIN=-1.935 - flat end mill)
(This cuts 15.1mm down to 13.17...)
(Face1)
T1
S12000 M3
G54
M8
G0 X16.702 Y-14.115
Z15
Z5
G1 Z0.08 F2388.4
G18 G3 X16.102 Z-0.52 I-0.6 K0
G1 X13
X-13
G17 G2 X-13 Y-12.25 I0 J0.932
G1 X13
G3 X13 Y-10.385 I0 J0.932
G1 X-13
G2 X-13 Y-8.52 I0 J0.932
G1 X13
G3 X13 Y-6.655 I0 J0.933
G1 X-13
G2 X-13 Y-4.79 I0 J0.933
G1 X13
G3 X13 Y-2.925 I0 J0.932
G1 X-13
G2 X-13 Y-1.06 I0 J0.933
G1 X13
G3 X13 Y0.805 I0 J0.932
G1 X-13
G2 X-13 Y2.67 I0 J0.932
G1 X13
G3 X13 Y4.535 I0 J0.932
G1 X-13
G2 X-13 Y6.4 I0 J0.933
G1 X13
G3 X13 Y8.265 I0 J0.932
G1 X-13
G2 X-13 Y10.13 I0 J0.932
G1 X13
G18 G2 X13.6 Z0.08 I0 K0.6
G0 Z5
X16.702 Y-14.115
G1 Z-1.335 F2388.4
G3 X16.102 Z-1.935 I-0.6 K0
G1 X13
X-13
G17 G2 X-13 Y-12.25 I0 J0.932
G1 X13
G3 X13 Y-10.385 I0 J0.932
G1 X-13
G2 X-13 Y-8.52 I0 J0.932
G1 X13
G3 X13 Y-6.655 I0 J0.933
G1 X-13
G2 X-13 Y-4.79 I0 J0.933
G1 X13
G3 X13 Y-2.925 I0 J0.932
G1 X-13
G2 X-13 Y-1.06 I0 J0.933
G1 X13
G3 X13 Y0.805 I0 J0.932
G1 X-13
G2 X-13 Y2.67 I0 J0.932
G1 X13
G3 X13 Y4.535 I0 J0.932
G1 X-13
G2 X-13 Y6.4 I0 J0.933
G1 X13
G3 X13 Y8.265 I0 J0.932
G1 X-13
G2 X-13 Y10.13 I0 J0.932
G1 X13
G18 G2 X13.6 Z-1.335 I0 K0.6
G0 Z15