(turntable-bores)
(T1  D=3.175 CR=0 - ZMIN=-3.25 - flat end mill)
(Bore4)
T1
S11999 M3
G54
M8
G0 X4.23 Y-8
Z15
Z2
G1 Z0.317 F1275
G18 G2 X4.548 Z0 I0.318 K0
G1 X4.706
G17 G3 X4.912 Y-7.794 I0 J0.206
X4.088 Y-7.794 Z-0.5 I-0.412 J0 F1274.9
X4.912 Y-7.794 Z-1 I0.412 J0
X4.088 Y-7.794 Z-1.5 I-0.412 J0
X4.912 Y-7.794 Z-2 I0.412 J0
X4.088 Y-7.794 Z-2.5 I-0.412 J0
X4.912 Y-7.794 Z-3 I0.412 J0
X4.5 Y-7.382 Z-3.25 I-0.412 J0
X4.5 Y-8.207 I0 J-0.412
X4.5 Y-7.382 I0 J0.412
X4.294 Y-7.588 I0 J-0.206 F1275
G1 Y-7.747
G19 G2 Y-8.064 Z-2.932 J0 K0.318
G0 Z5
X-4.77 Y-8
Z2
G1 Z0.317 F1275
G18 G2 X-4.452 Z0 I0.318 K0
G1 X-4.294
G17 G3 X-4.088 Y-7.794 I0 J0.206
X-4.912 Y-7.794 Z-0.5 I-0.412 J0 F1274.9
X-4.088 Y-7.794 Z-1 I0.412 J0
X-4.912 Y-7.794 Z-1.5 I-0.412 J0
X-4.088 Y-7.794 Z-2 I0.412 J0
X-4.912 Y-7.794 Z-2.5 I-0.412 J0
X-4.088 Y-7.794 Z-3 I0.412 J0
X-4.5 Y-7.382 Z-3.25 I-0.412 J0
X-4.5 Y-8.207 I0 J-0.412
X-4.5 Y-7.382 I0 J0.412
X-4.706 Y-7.588 I0 J-0.206 F1275
G1 Y-7.747
G19 G2 Y-8.064 Z-2.932 J0 K0.318
G0 Z5
X-9.27 Y-0.206
Z2
G1 Z0.317 F1275
G18 G2 X-8.953 Z0 I0.318 K0
G1 X-8.794
G17 G3 X-8.587 Y0 I0 J0.206
X-9.413 Y0 Z-0.5 I-0.413 J0 F1274.9
X-8.587 Y0 Z-1 I0.413 J0
X-9.413 Y0 Z-1.5 I-0.413 J0
X-8.587 Y0 Z-2 I0.413 J0
X-9.413 Y0 Z-2.5 I-0.413 J0
X-8.587 Y0 Z-3 I0.413 J0
X-9 Y0.412 Z-3.25 I-0.413 J0
X-9 Y-0.412 I0 J-0.412
X-9 Y0.412 I0 J0.412
X-9.206 Y0.206 I0 J-0.206 F1275
G1 Y0.047
G19 G2 Y-0.27 Z-2.932 J0 K0.318
G0 Z5
X-4.77 Y7.588
Z2
G1 Z0.317 F1275
G18 G2 X-4.452 Z0 I0.318 K0
G1 X-4.294
G17 G3 X-4.088 Y7.794 I0 J0.206
X-4.912 Y7.794 Z-0.5 I-0.412 J0 F1274.9
X-4.087 Y7.794 Z-1 I0.412 J0
X-4.913 Y7.794 Z-1.5 I-0.413 J0
X-4.087 Y7.794 Z-2 I0.413 J0
X-4.913 Y7.794 Z-2.5 I-0.413 J0
X-4.087 Y7.794 Z-3 I0.413 J0
X-4.5 Y8.207 Z-3.25 I-0.413 J0
X-4.5 Y7.382 I0 J-0.413
X-4.5 Y8.207 I0 J0.413
X-4.706 Y8 I0 J-0.206 F1275
G1 Y7.842
G19 G2 Y7.524 Z-2.932 J0 K0.318
G0 Z5
X4.23 Y7.588
Z2
G1 Z0.317 F1275
G18 G2 X4.548 Z0 I0.318 K0
G1 X4.706
G17 G3 X4.912 Y7.794 I0 J0.206
X4.088 Y7.794 Z-0.5 I-0.412 J0 F1274.9
X4.913 Y7.794 Z-1 I0.412 J0
X4.087 Y7.794 Z-1.5 I-0.413 J0
X4.913 Y7.794 Z-2 I0.413 J0
X4.087 Y7.794 Z-2.5 I-0.413 J0
X4.913 Y7.794 Z-3 I0.413 J0
X4.5 Y8.207 Z-3.25 I-0.413 J0
X4.5 Y7.382 I0 J-0.413
X4.5 Y8.207 I0 J0.413
X4.294 Y8 I0 J-0.206 F1275
G1 Y7.842
G19 G2 Y7.524 Z-2.932 J0 K0.318
G0 Z5
X8.73 Y-0.206
Z2
G1 Z0.317 F1275
G18 G2 X9.047 Z0 I0.318 K0
G1 X9.206
G17 G3 X9.413 Y0 I0 J0.206
X8.587 Y0 Z-0.5 I-0.413 J0 F1274.9
X9.413 Y0 Z-1 I0.413 J0
X8.587 Y0 Z-1.5 I-0.413 J0
X9.413 Y0 Z-2 I0.413 J0
X8.587 Y0 Z-2.5 I-0.413 J0
X9.413 Y0 Z-3 I0.413 J0
X9 Y0.412 Z-3.25 I-0.413 J0
X9 Y-0.412 I0 J-0.412
X9 Y0.412 I0 J0.412
X8.794 Y0.206 I0 J-0.206 F1275
G1 Y0.047
G19 G2 Y-0.27 Z-2.932 J0 K0.318
G0 Z15